; generated by SuperSlicer 2.4 on 2024-05-17 at 13:17:20 UTC

; 

; external perimeters extrusion width = 0.42mm
; perimeters extrusion width = 0.46mm
; infill extrusion width = 0.44mm
; solid infill extrusion width = 0.46mm
; top infill extrusion width = 0.44mm
; support material extrusion width = 0.40mm
; first layer extrusion width = 0.60mm

; external perimeters extrusion width = 0.42mm
; perimeters extrusion width = 0.46mm
; infill extrusion width = 0.44mm
; solid infill extrusion width = 0.46mm
; top infill extrusion width = 0.44mm
; support material extrusion width = 0.40mm
; first layer extrusion width = 0.60mm

; object:{"name":"Decal_Ring_Tripple","id":"Decal_Ring_Tripple.stl id:0 copy 0","object_center":[111.535008,100.459165,0.000000],"boundingbox_center":[111.535008,100.459165,8.500000],"boundingbox_size":[21.000000,43.954521,17.000000]}
; object:{"name":"Decal_Ring_Tripple","id":"Decal_Ring_Tripple.stl id:1 copy 0","object_center":[87.604310,100.459165,0.000000],"boundingbox_center":[87.604310,100.459165,8.500000],"boundingbox_size":[21.000000,43.954521,17.000000]}
; Total objects to print: 2
M486 T2
; plater:{"center":[99.569659,100.459165,0.000000],"boundingbox_center":[99.569659,100.459165,8.500000],"boundingbox_size":[44.930698,43.954521,17.000000]}

M140 S70 ; set bed temperature
M104 S230 ; set temperature
;TYPE:Custom
G28 ; home all axes
G1 Z5 F5000 ; lift nozzle
M107
G21 ; set units to millimeters
G90 ; use absolute coordinates
M82 ; use absolute distances for extrusion
G92 E0
; Filament gcode
;_TOOLCHANGE 0
M109 S230 ; set temperature and wait for it to be reached
M190 S70 ; set bed temperature and wait for it to be reached
M107
;LAYER_CHANGE
;Z:0.3
;HEIGHT:0.3
G1 Z0.3 F7800
G1 E-2 F2400
G1 X73.883 Y73.783 F7800
G1 E0 F2400
;TYPE:Skirt
;WIDTH:0.44
G1 F1800
G1 X72.421 Y75.249 E0.097
G1 X70.071 Y77.991 E0.26622
G1 X68.85 Y79.67 E0.36346
G1 X67.688 Y81.471 E0.46387
G1 X66.953 Y82.738 E0.53248
G1 X66.003 Y84.589 E0.62996
G1 X64.742 Y87.543 E0.78047
G1 X63.685 Y90.816 E0.94158
G1 X62.913 Y94.317 E1.10954
G1 X62.483 Y97.884 E1.27785
G1 X62.403 Y101.356 E1.44056
G1 X62.665 Y104.919 E1.60794
G1 X63.236 Y108.28 E1.76766
G1 X63.691 Y110.127 E1.85676
G1 X64.35 Y112.278 E1.96219
G1 X65.609 Y115.48 E2.12336
G1 X66.591 Y117.501 E2.22865
G1 X67.325 Y118.839 E2.30014
G1 X69.167 Y121.708 E2.45986
G1 X71.268 Y124.394 E2.61959
G1 X73.608 Y126.873 E2.77932
G1 X75.139 Y128.266 E2.87629
G1 X76.8 Y129.615 E2.97654
G1 X79.605 Y131.561 E3.13649
G1 X82.579 Y133.238 E3.29644
G1 X84.576 Y134.171 E3.39973
G1 X86.351 Y134.884 E3.48935
G1 X89.6 Y135.919 E3.64907
G1 X92.93 Y136.648 E3.8088
G1 X96.314 Y137.064 E3.96852
G1 X98.104 Y137.149 E4.05248
G1 X101.035 Y137.149 E4.18978
G1 X103.51 Y137.003 E4.30596
G1 X106.89 Y136.522 E4.4659
G1 X110.211 Y135.73 E4.62585
G1 X112.076 Y135.14 E4.71749
G1 X114.563 Y134.171 E4.84253
G1 X117.632 Y132.676 E5.00248
G1 X120.549 Y130.902 E5.16242
G1 X123.289 Y128.864 E5.32237
G1 X124.978 Y127.392 E5.42734
G1 X126.07 Y126.342 E5.49832
G1 X128.359 Y123.815 E5.65805
G1 X130.404 Y121.087 E5.81778
G1 X131.452 Y119.448 E5.90894
G1 X132.548 Y117.501 E6.0136
G1 X134.007 Y114.368 E6.17554
G1 X134.535 Y113.01 E6.24376
G1 X135.189 Y111.03 E6.34148
G1 X136.058 Y107.54 E6.50998
G1 X136.382 Y105.599 E6.60214
G1 X136.627 Y103.387 E6.70642
G1 X136.736 Y101.356 E6.80172
G1 X136.736 Y99.563 E6.88573
G1 X136.474 Y95.999 E7.05311
G1 X135.903 Y92.638 E7.21284
G1 X135.023 Y89.344 E7.37257
G1 X133.842 Y86.147 E7.53228
G1 X133.049 Y84.407 E7.62185
G1 X132.025 Y82.454 E7.72514
G1 X130.214 Y79.56 E7.88509
G1 X128.944 Y77.835 E7.98545
G1 X127.622 Y76.237 E8.0826
G1 X125.776 Y74.287 E8.20842
G1 X124.701 Y73.269 E8.27777
G1 X122.073 Y71.098 E8.4375
G1 X119.254 Y69.18 E8.59723
G1 X116.269 Y67.532 E8.75695
G1 X113.145 Y66.168 E8.91668
G1 X111.3 Y65.521 E9.00825
G1 X109.182 Y64.908 E9.11154
G1 X105.816 Y64.208 E9.27261
G1 X103.582 Y63.921 E9.37814
G1 X101.98 Y63.798 E9.45341
G1 X98.104 Y63.769 E9.63499
G1 X94.621 Y64.025 E9.79861
G1 X91.088 Y64.636 E9.96658
G1 X87.839 Y65.521 E10.12434
G1 X85.43 Y66.389 E10.24432
G1 X83.565 Y67.201 E10.33963
G1 X80.659 Y68.722 E10.49326
G1 X77.656 Y70.667 E10.66091
G1 X75.008 Y72.766 E10.8192
G1 X73.928 Y73.742 E10.88743
G1 X74.179 Y74.021 F7800
G1 F1800
G1 X74.138 Y74.058 E10.89002
G1 X72.69 Y75.512 E10.98616
G1 X70.365 Y78.224 E11.15352
G1 X69.155 Y79.888 E11.2499
G1 X68.006 Y81.67 E11.34926
G1 X66.339 Y84.757 E11.51362
G1 X65.096 Y87.67 E11.66197
G1 X64.049 Y90.908 E11.82142
G1 X63.282 Y94.386 E11.98829
G1 X62.857 Y97.914 E12.15477
G1 X62.778 Y101.35 E12.31577
G1 X63.038 Y104.877 E12.48144
G1 X63.604 Y108.204 E12.63954
G1 X64.055 Y110.034 E12.72785
G1 X64.708 Y112.164 E12.83222
G1 X65.954 Y115.332 E12.99172
G1 X66.927 Y117.333 E13.09595
G1 X67.652 Y118.654 E13.16658
G1 X69.476 Y121.494 E13.32466
G1 X71.555 Y124.152 E13.48276
G1 X73.872 Y126.605 E13.64086
G1 X75.389 Y127.986 E13.73697
G1 X77.033 Y129.321 E13.83617
G1 X79.809 Y131.246 E13.99448
G1 X82.753 Y132.906 E14.15279
G1 X84.719 Y133.824 E14.25444
G1 X86.478 Y134.531 E14.34327
G1 X89.693 Y135.555 E14.50136
G1 X92.99 Y136.277 E14.65946
G1 X96.339 Y136.689 E14.81754
G1 X98.104 Y136.773 E14.90033
G1 X101.035 Y136.773 E15.03764
G1 X103.469 Y136.63 E15.15186
G1 X106.814 Y136.155 E15.31017
G1 X110.101 Y135.37 E15.46848
G1 X111.949 Y134.787 E15.55928
G1 X114.42 Y133.824 E15.68351
G1 X117.458 Y132.343 E15.84183
G1 X120.345 Y130.587 E16.00014
G1 X123.056 Y128.57 E16.15845
G1 X125.806 Y126.075 E16.33244
G1 X128.072 Y123.573 E16.49053
G1 X130.095 Y120.873 E16.64863
G1 X131.133 Y119.248 E16.73896
G1 X132.213 Y117.333 E16.84195
G1 X133.662 Y114.22 E17.00283
G1 X134.831 Y110.915 E17.16704
G1 X135.69 Y107.463 E17.3337
G1 X136.011 Y105.541 E17.42501
G1 X136.252 Y103.364 E17.52763
G1 X136.361 Y101.35 E17.62211
G1 X136.361 Y99.568 E17.70558
G1 X136.101 Y96.042 E17.87125
G1 X135.536 Y92.715 E18.02935
G1 X134.664 Y89.455 E18.18744
G1 X133.494 Y86.29 E18.34552
G1 X132.708 Y84.566 E18.4343
G1 X131.701 Y82.644 E18.53595
G1 X129.909 Y79.779 E18.69426
G1 X128.652 Y78.072 E18.79357
G1 X127.343 Y76.488 E18.88985
G1 X125.508 Y74.55 E19.01486
G1 X124.446 Y73.544 E19.08339
G1 X121.844 Y71.396 E19.24149
G1 X119.054 Y69.498 E19.39959
G1 X116.099 Y67.867 E19.55768
G1 X113.007 Y66.517 E19.71578
G1 X111.179 Y65.877 E19.80651
G1 X109.095 Y65.273 E19.90816
G1 X105.764 Y64.58 E20.06757
G1 X103.552 Y64.296 E20.17203
G1 X101.957 Y64.173 E20.24696
G1 X98.104 Y64.145 E20.42748
G1 X94.674 Y64.397 E20.58863
G1 X91.164 Y65.004 E20.7555
G1 X87.96 Y65.877 E20.91106
G1 X84.915 Y67.011 E21.0633
G1 X82.87 Y67.954 E21.1688
G1 X80.854 Y69.043 E21.27614
G1 X77.87 Y70.976 E21.4427
G1 X75.25 Y73.054 E21.5994
G1 X74.224 Y73.981 E21.66416
G92 E0
G1 E-2 F2400
; printing object Decal_Ring_Tripple.stl id:0 copy 0
M486 S0
G1 X101.337 Y79.658 F7800
G1 E0 F2400
;TYPE:External perimeter
;WIDTH:0.604
G1 F1800
G1 X102.309 Y79.736 E0.06561
G1 X103.59 Y79.917 E0.15271
G1 X104.319 Y80.057 E0.20264
G1 X105.482 Y80.335 E0.28315
G1 X106.194 Y80.543 E0.33309
G1 X107.327 Y80.928 E0.4136
G1 X108.017 Y81.201 E0.46355
G1 X109.109 Y81.69 E0.54406
G1 X109.771 Y82.025 E0.59401
G1 X110.812 Y82.613 E0.67451
G1 X111.441 Y83.008 E0.72446
G1 X112.423 Y83.691 E0.80497
G1 X113.012 Y84.143 E0.85492
G1 X113.926 Y84.914 E0.93543
G1 X114.471 Y85.418 E0.98537
G1 X115.309 Y86.271 E1.06588
G1 X115.805 Y86.823 E1.11581
G1 X116.62 Y87.828 E1.20292
G1 X117.316 Y88.799 E1.28331
G1 X117.721 Y89.421 E1.33325
G1 X118.324 Y90.454 E1.41376
G1 X118.669 Y91.111 E1.46371
G1 X119.174 Y92.195 E1.54422
G1 X119.457 Y92.881 E1.59416
G1 X119.859 Y94.008 E1.67466
G1 X120.077 Y94.717 E1.72462
G1 X120.372 Y95.876 E1.80512
G1 X120.523 Y96.603 E1.85507
G1 X120.71 Y97.784 E1.93557
G1 X120.793 Y98.522 E1.98551
G1 X120.873 Y99.815 E2.07275
G1 X120.873 Y101.103 E2.15941
G1 X120.793 Y102.397 E2.24665
G1 X120.71 Y103.134 E2.29658
G1 X120.523 Y104.315 E2.37709
G1 X120.372 Y105.042 E2.42704
G1 X120.077 Y106.199 E2.50742
G1 X119.682 Y107.432 E2.59452
G1 X119.421 Y108.126 E2.64446
G1 X118.951 Y109.224 E2.72484
G1 X118.37 Y110.381 E2.81195
G1 X118.005 Y111.027 E2.86188
G1 X117.37 Y112.04 E2.94239
G1 X116.947 Y112.65 E2.99233
G1 X116.22 Y113.6 E3.07284
G1 X115.742 Y114.167 E3.12279
G1 X114.93 Y115.046 E3.2033
G1 X114.401 Y115.566 E3.25322
G1 X113.436 Y116.429 E3.34035
G1 X112.5 Y117.17 E3.42072
G1 X111.897 Y117.603 E3.47066
G1 X110.894 Y118.255 E3.55118
G1 X110.254 Y118.631 E3.60112
G1 X109.195 Y119.186 E3.68163
G1 X108.523 Y119.501 E3.73158
G1 X107.416 Y119.956 E3.81209
G1 X106.718 Y120.207 E3.86203
G1 X105.574 Y120.557 E3.94254
G1 X104.856 Y120.742 E3.99249
G1 X103.684 Y120.984 E4.07299
G1 X102.952 Y121.102 E4.12294
G1 X101.763 Y121.234 E4.20345
G1 X101.337 Y121.263 E4.23217
G1 X101.337 Y118.708 E4.40414
G1 X102.279 Y118.623 E4.46781
G1 X103.494 Y118.431 E4.55057
G1 X104.102 Y118.304 E4.59239
G1 X105.291 Y117.99 E4.67516
G1 X106.456 Y117.598 E4.75792
G1 X107.032 Y117.371 E4.79957
G1 X107.6 Y117.125 E4.84122
G1 X108.702 Y116.579 E4.92398
G1 X109.765 Y115.961 E5.00675
G1 X110.283 Y115.623 E5.04839
G1 X110.79 Y115.268 E5.09004
G1 X111.758 Y114.514 E5.17264
G1 X112.229 Y114.108 E5.21445
G1 X113.118 Y113.258 E5.29722
G1 X113.948 Y112.351 E5.37999
G1 X114.342 Y111.874 E5.42163
G1 X114.719 Y111.383 E5.46328
G1 X115.42 Y110.373 E5.54605
G1 X116.052 Y109.315 E5.62898
G1 X116.61 Y108.219 E5.71175
G1 X116.864 Y107.652 E5.75357
G1 X117.309 Y106.506 E5.83633
G1 X117.676 Y105.332 E5.9191
G1 X117.832 Y104.731 E5.96092
G1 X118.078 Y103.526 E6.04368
G1 X118.244 Y102.307 E6.12645
G1 X118.296 Y101.682 E6.16867
G1 X118.337 Y100.456 E6.25127
G1 X118.326 Y99.834 E6.29312
G1 X118.244 Y98.614 E6.37545
G1 X118.079 Y97.395 E6.45822
G1 X117.964 Y96.784 E6.50003
G1 X117.677 Y95.588 E6.5828
G1 X117.309 Y94.412 E6.66574
G1 X116.864 Y93.266 E6.7485
G1 X116.61 Y92.699 E6.79032
G1 X116.052 Y91.603 E6.87309
G1 X115.42 Y90.546 E6.95602
G1 X114.719 Y89.535 E7.03879
G1 X114.342 Y89.045 E7.08044
G1 X113.948 Y88.568 E7.12209
G1 X113.118 Y87.66 E7.20485
G1 X112.229 Y86.811 E7.28762
G1 X111.758 Y86.405 E7.32944
G1 X110.79 Y85.651 E7.41203
G1 X110.283 Y85.295 E7.45368
G1 X109.765 Y84.958 E7.49532
G1 X108.702 Y84.339 E7.57809
G1 X107.6 Y83.794 E7.66086
G1 X107.032 Y83.547 E7.7025
G1 X106.456 Y83.321 E7.74415
G1 X105.291 Y82.928 E7.82692
G1 X104.102 Y82.615 E7.90968
G1 X103.494 Y82.487 E7.9515
G1 X102.279 Y82.295 E8.03426
G1 X101.337 Y82.211 E8.09793
G1 X101.337 Y79.718 E8.26571
;WIPE_START
G1 X101.672 Y79.876 F7800
;WIPE_END
G1 X101.877 Y80.242
;TYPE:Internal perimeter
G1 F1800
G1 X102.249 Y80.272 E8.29088
G1 X103.501 Y80.449 E8.37597
G1 X104.205 Y80.585 E8.42418
G1 X105.344 Y80.857 E8.503
G1 X106.032 Y81.057 E8.55126
G1 X107.141 Y81.435 E8.63008
G1 X107.808 Y81.698 E8.67834
G1 X108.877 Y82.177 E8.75716
G1 X109.516 Y82.501 E8.80542
G1 X110.536 Y83.077 E8.88424
G1 X111.143 Y83.459 E8.9325
G1 X112.104 Y84.127 E9.01132
G1 X112.673 Y84.563 E9.05958
G1 X113.569 Y85.318 E9.1384
G1 X114.095 Y85.805 E9.18666
G1 X114.916 Y86.64 E9.26548
G1 X115.394 Y87.173 E9.31368
G1 X116.191 Y88.156 E9.39881
G1 X116.871 Y89.103 E9.47728
G1 X117.261 Y89.704 E9.52553
G1 X117.852 Y90.715 E9.60435
G1 X118.186 Y91.35 E9.65261
G1 X118.68 Y92.412 E9.73144
G1 X118.953 Y93.075 E9.77969
G1 X119.346 Y94.178 E9.8585
G1 X119.557 Y94.863 E9.90677
G1 X119.846 Y95.998 E9.98558
G1 X119.992 Y96.7 E10.03384
G1 X120.175 Y97.857 E10.11266
G1 X120.255 Y98.569 E10.16088
G1 X120.333 Y99.832 E10.24609
G1 X120.333 Y101.086 E10.33048
G1 X120.255 Y102.35 E10.41569
G1 X120.175 Y103.062 E10.46391
G1 X119.992 Y104.218 E10.54273
G1 X119.846 Y104.92 E10.59098
G1 X119.558 Y106.05 E10.66946
G1 X119.172 Y107.254 E10.75457
G1 X118.92 Y107.925 E10.80278
G1 X118.461 Y108.997 E10.88125
G1 X117.894 Y110.127 E10.96637
G1 X117.542 Y110.751 E11.01457
G1 X116.92 Y111.743 E11.09339
G1 X116.511 Y112.332 E11.14165
G1 X115.799 Y113.262 E11.22047
G1 X115.337 Y113.81 E11.26873
G1 X114.542 Y114.67 E11.34755
G1 X114.032 Y115.173 E11.39574
G1 X113.089 Y116.016 E11.4809
G1 X112.175 Y116.739 E11.55934
G1 X111.592 Y117.158 E11.6076
G1 X110.61 Y117.796 E11.68643
G1 X109.992 Y118.159 E11.73468
G1 X108.955 Y118.703 E11.8135
G1 X108.306 Y119.007 E11.86176
G1 X107.223 Y119.452 E11.94058
G1 X106.548 Y119.695 E11.98884
G1 X105.428 Y120.037 E12.06766
G1 X104.734 Y120.216 E12.11592
G1 X103.587 Y120.453 E12.19474
G1 X102.879 Y120.567 E12.24299
G1 X101.877 Y120.679 E12.31087
G1 X101.877 Y119.201 E12.41032
G1 X102.345 Y119.159 E12.442
G1 X103.591 Y118.962 E12.5269
G1 X104.226 Y118.829 E12.57055
G1 X105.446 Y118.508 E12.65546
G1 X106.642 Y118.105 E12.74037
G1 X107.238 Y117.87 E12.78354
G1 X107.827 Y117.614 E12.82672
G1 X108.958 Y117.055 E12.91163
G1 X110.048 Y116.42 E12.99653
G1 X110.585 Y116.07 E13.03971
G1 X111.111 Y115.702 E13.08288
G1 X112.101 Y114.931 E13.16731
G1 X112.591 Y114.507 E13.21097
G1 X113.504 Y113.636 E13.29587
G1 X114.355 Y112.705 E13.38078
G1 X114.763 Y112.21 E13.42396
G1 X115.155 Y111.702 E13.46713
G1 X115.874 Y110.665 E13.55204
G1 X116.524 Y109.576 E13.63742
G1 X117.097 Y108.452 E13.72233
G1 X117.362 Y107.86 E13.76598
G1 X117.819 Y106.684 E13.85089
G1 X118.196 Y105.48 E13.9358
G1 X118.358 Y104.852 E13.97945
G1 X118.611 Y103.616 E14.06436
G1 X118.78 Y102.366 E14.14927
G1 X118.835 Y101.714 E14.19333
G1 X118.877 Y100.46 E14.27776
G1 X118.866 Y99.811 E14.32145
G1 X118.781 Y98.559 E14.40591
G1 X118.612 Y97.309 E14.49081
G1 X118.492 Y96.671 E14.53447
G1 X118.198 Y95.445 E14.61937
G1 X117.819 Y94.234 E14.70476
G1 X117.362 Y93.058 E14.78966
G1 X117.097 Y92.466 E14.83332
G1 X116.524 Y91.342 E14.91822
G1 X115.874 Y90.253 E15.00361
G1 X115.155 Y89.216 E15.08852
G1 X114.763 Y88.708 E15.13169
G1 X114.355 Y88.214 E15.17487
G1 X113.504 Y87.283 E15.25977
G1 X112.591 Y86.411 E15.34468
G1 X112.101 Y85.987 E15.38833
G1 X111.111 Y85.216 E15.47276
G1 X110.585 Y84.848 E15.51594
G1 X110.048 Y84.498 E15.55912
G1 X108.958 Y83.864 E15.64402
G1 X107.827 Y83.304 E15.72893
G1 X107.238 Y83.049 E15.7721
G1 X106.642 Y82.814 E15.81528
G1 X105.446 Y82.411 E15.90019
G1 X104.226 Y82.089 E15.98509
G1 X103.591 Y81.956 E16.02875
G1 X102.345 Y81.759 E16.11365
G1 X101.877 Y81.717 E16.14533
G1 X101.877 Y80.302 E16.24055
G1 X102.125 Y80.99 F7800
;TYPE:Gap fill
;WIDTH:0.955556
G1 F1200
G1 X102.211 Y81.001 E16.2502
G1 X102.403 Y81.029 E16.27175
G1 X102.424 Y81.032 E16.2742
;WIDTH:0.992727
G1 X102.607 Y81.061 E16.29564
;WIDTH:1.038353
G1 X102.994 Y81.119 E16.34309
G1 X103.38 Y81.176 E16.39054
G1 X103.546 Y81.205 E16.411
G1 X103.712 Y81.234 E16.43145
G1 X103.893 Y81.271 E16.45387
G1 X104.05 Y81.302 E16.47333
G1 X104.216 Y81.34 E16.49403
G1 X104.382 Y81.377 E16.51474
G1 X104.406 Y81.383 E16.51769
G1 X104.78 Y81.477 E16.56458
G1 X105.155 Y81.571 E16.61146
G1 X105.641 Y81.705 E16.67273
G1 X105.811 Y81.758 E16.6944
G1 X106.346 Y81.94 E16.76306
G1 X106.882 Y82.121 E16.83171
G1 X106.912 Y82.132 E16.83568
G1 X107.217 Y82.256 E16.87558
G1 X107.521 Y82.379 E16.91548
G1 X107.818 Y82.507 E16.95477
G1 X108.115 Y82.635 E16.99406
G1 X108.145 Y82.648 E16.99799
G1 X108.352 Y82.745 E17.0258
G1 X108.559 Y82.843 E17.0536
G1 X108.864 Y82.996 E17.09507
G1 X109.169 Y83.149 E17.13654
G1 X109.318 Y83.228 E17.15699
G1 X109.738 Y83.469 E17.21582
G1 X110.158 Y83.71 E17.27466
G1 X110.29 Y83.789 E17.29334
G1 X110.421 Y83.869 E17.31202
G1 X110.449 Y83.886 E17.31597
G1 X110.592 Y83.98 E17.33679
G1 X110.736 Y84.074 E17.35761
G1 X111.132 Y84.345 E17.41598
G1 X111.529 Y84.617 E17.47436
G1 X111.671 Y84.721 E17.49573
G1 X111.941 Y84.929 E17.5372
G1 X112.211 Y85.138 E17.57868
G1 X112.382 Y85.277 E17.60545
G1 X112.553 Y85.416 E17.63223
G1 X112.572 Y85.431 E17.63518
G1 X112.824 Y85.646 E17.67534
G1 X113.075 Y85.86 E17.7155
G1 X113.093 Y85.877 E17.71847
G1 X113.337 Y86.106 E17.75911
G1 X113.581 Y86.335 E17.79975
G1 X113.797 Y86.548 E17.83663
G1 X114.013 Y86.761 E17.87351
G1 X114.036 Y86.785 E17.87744
G1 X114.207 Y86.965 E17.90766
G1 X114.378 Y87.146 E17.93788
G1 X114.835 Y87.65 E18.02061
G1 X114.92 Y87.749 E18.03644
G1 X115.606 Y88.602 E18.16941
G1 X115.732 Y88.769 E18.19482
G1 X115.751 Y88.795 E18.19876
G1 X116.007 Y89.157 E18.25254
