; generated by SuperSlicer 2.4 on 2024-05-10 at 08:16:26 UTC

; 

; external perimeters extrusion width = 0.42mm
; perimeters extrusion width = 0.46mm
; infill extrusion width = 0.44mm
; solid infill extrusion width = 0.46mm
; top infill extrusion width = 0.44mm
; support material extrusion width = 0.40mm
; first layer extrusion width = 0.60mm

; object:{"name":"Test_Emitter_Barrel","id":"Test_Emitter_Barrel.stl id:0 copy 0","object_center":[99.884421,100.460037,0.000000],"boundingbox_center":[99.884421,100.460037,20.000000],"boundingbox_size":[43.000000,42.999092,40.000000]}
; Total objects to print: 1
M486 T1
; plater:{"center":[99.884421,100.460037,0.000000],"boundingbox_center":[99.884421,100.460037,20.000000],"boundingbox_size":[43.000000,42.999092,40.000000]}

M140 S70 ; set bed temperature
M104 S220 ; set temperature
;TYPE:Custom
G28 ; home all axes
G1 Z5 F5000 ; lift nozzle
M107
G21 ; set units to millimeters
G90 ; use absolute coordinates
M82 ; use absolute distances for extrusion
G92 E0
; Filament gcode
;_TOOLCHANGE 0
M109 S220 ; set temperature and wait for it to be reached
M190 S70 ; set bed temperature and wait for it to be reached
M107
;LAYER_CHANGE
;Z:0.3
;HEIGHT:0.3
G1 Z0.3 F7800
G1 E-2 F2400
G1 X87.686 Y78.01 F7800
G1 E0 F2400
;TYPE:Skirt
;WIDTH:0.44
G1 F1800
G1 X80.932 Y87.008 E0.5271
G1 X79.9 Y88.595 E0.61578
G1 X79.314 Y89.643 E0.67204
G1 X78.149 Y92.231 E0.80496
G1 X77.367 Y94.708 E0.92666
G1 X76.833 Y97.495 E1.05963
G1 X76.658 Y99.635 E1.16019
G1 X76.732 Y102.483 E1.29366
G1 X77.151 Y105.29 E1.42663
G1 X77.909 Y108.025 E1.5596
G1 X78.891 Y110.431 E1.68137
G1 X79.773 Y112.106 E1.77005
G1 X80.932 Y113.911 E1.87052
G1 X87.673 Y122.9 E2.39692
G1 X88.932 Y124.152 E2.48009
G1 X90.919 Y125.133 E2.58391
G1 X93.381 Y125.831 E2.7038
G1 X95.224 Y126.233 E2.79218
G1 X96.527 Y126.435 E2.85396
G1 X99.066 Y126.683 E2.97346
G1 X101.402 Y126.644 E3.08295
G1 X104.302 Y126.276 E3.21988
G1 X106.388 Y125.831 E3.31983
G1 X108.834 Y125.139 E3.43891
G1 X110.457 Y124.411 E3.52222
G1 X112.084 Y122.907 E3.62603
G1 X118.833 Y113.916 E4.15274
G1 X119.871 Y112.32 E4.24193
G1 X120.457 Y111.272 E4.29816
G1 X121.531 Y108.919 E4.41934
G1 X122.401 Y106.218 E4.55231
G1 X122.838 Y104.105 E4.65338
G1 X123.111 Y101.28 E4.78634
G1 X123.038 Y98.443 E4.91931
G1 X122.668 Y95.872 E5.04101
G1 X121.938 Y93.127 E5.17405
G1 X120.88 Y90.494 E5.30702
G1 X119.872 Y88.601 E5.40749
G1 X118.833 Y87.003 E5.49676
G1 X112.098 Y78.016 E6.02293
G1 X110.825 Y76.752 E6.10695
G1 X108.836 Y75.776 E6.21076
G1 X106.387 Y75.088 E6.32996
G1 X104.55 Y74.687 E6.41804
G1 X103.121 Y74.471 E6.48574
G1 X100.778 Y74.264 E6.59594
G1 X98.369 Y74.275 E6.7088
G1 X96.275 Y74.518 E6.80754
G1 X94.169 Y74.899 E6.90783
G1 X90.939 Y75.777 E7.06464
G1 X89.313 Y76.506 E7.14811
G1 X87.73 Y77.97 E7.24911
G92 E0
G1 E-2 F2400
; printing object Test_Emitter_Barrel.stl id:0 copy 0
M486 S0
G1 X92.541 Y108.899 F7800
G1 E0 F2400
;TYPE:Support material
;WIDTH:0.604
G1 F1800
G1 X96.172 Y110.357 E0.26335
G1 X96.638 Y110.52 E0.29656
G1 X96.752 Y110.554 E0.30455
G1 X97.111 Y110.66 E0.32976
G1 X97.59 Y110.779 E0.36296
G1 X97.83 Y110.826 E0.37942
G1 X98.074 Y110.875 E0.39616
G1 X99.893 Y111.147 E0.51994
G1 X101.51 Y110.901 E0.63006
G1 X101.602 Y110.888 E0.63631
G1 X101.692 Y110.875 E0.64243
G1 X101.929 Y110.828 E0.65871
G1 X102.172 Y110.78 E0.67535
G1 X102.651 Y110.662 E0.70855
G1 X103.124 Y110.522 E0.74176
G1 X103.473 Y110.401 E0.76666
G1 X103.59 Y110.36 E0.77494
G1 X103.92 Y110.227 E0.79892
G1 X107.228 Y108.9 E1.03877
G1 X107.228 Y110.223 E1.12777
G1 X107.161 Y110.274 E1.13345
G1 X107.04 Y110.36 E1.14344
G1 X106.71 Y110.593 E1.17059
G1 X106.215 Y110.91 E1.21016
G1 X105.924 Y111.077 E1.23273
G1 X105.721 Y111.193 E1.2485
G1 X105.23 Y111.446 E1.28565
G1 X104.727 Y111.676 E1.32289
G1 X104.475 Y111.791 E1.34151
G1 X104.228 Y112.177 E1.37239
G1 X104.228 Y117.127 E1.70549
G1 X104.88 Y117.594 E1.75951
G1 X105.559 Y117.365 E1.80774
G1 X105.961 Y117.228 E1.83631
G1 X106.238 Y117.122 E1.85634
G1 X106.639 Y116.967 E1.88522
G1 X107.291 Y116.685 E1.93303
G1 X107.599 Y116.552 E1.95565
G1 X107.138 Y119.189 E2.13582
G1 X104.946 Y119.813 E2.28928
G1 X104.152 Y120.004 E2.3442
G1 X103.353 Y120.161 E2.399
G1 X102.549 Y120.286 E2.4538
G1 X100.703 Y120.496 E2.57879
G1 X100.152 Y120.004 E2.62853
G1 X99.884 Y119.765 E2.65269
G1 X99.067 Y120.496 E2.72648
G1 X97.224 Y120.287 E2.85129
G1 X96.42 Y120.162 E2.9061
G1 X95.621 Y120.005 E2.96091
G1 X95.297 Y119.927 E2.98335
G1 X94.819 Y119.812 E3.01642
G1 X92.621 Y119.183 E3.1703
G1 X92.176 Y116.554 E3.34979
G1 X92.474 Y116.683 E3.37166
G1 X93.135 Y116.969 E3.42013
G1 X93.813 Y117.23 E3.46904
G1 X94.889 Y117.594 E3.54552
G1 X95.541 Y117.127 E3.59954
G1 X95.541 Y112.177 E3.93265
G1 X95.293 Y111.791 E3.96354
G1 X94.942 Y111.631 E3.9895
G1 X94.547 Y111.45 E4.01878
G1 X94.056 Y111.197 E4.05592
G1 X93.546 Y110.905 E4.0955
G1 X93.066 Y110.598 E4.13383
G1 X92.615 Y110.28 E4.17097
G1 X92.541 Y110.222 E4.17728
G1 X92.541 Y108.959 E4.26228
G1 X97.478 Y113.015 F7800
G1 F1800
G1 X97.478 Y117.747 E4.58078
G1 X97.904 Y118.199 E4.62261
G1 X99.174 Y118.272 E4.70818
G1 X99.519 Y118.291 E4.73144
G1 X99.541 Y118.292 E4.73294
G1 X100.211 Y118.292 E4.77807
G1 X100.263 Y118.291 E4.78157
G1 X100.909 Y118.266 E4.82507
G1 X101.875 Y118.192 E4.89023
G1 X102.291 Y117.743 E4.93149
G1 X102.291 Y113.01 E5.25003
G1 X101.774 Y112.544 E5.29686
G1 X100.903 Y112.635 E5.35583
G1 X100.392 Y112.656 E5.39026
G1 X99.881 Y112.677 E5.42468
G1 X99.843 Y112.677 E5.42725
G1 X99.385 Y112.667 E5.45808
G1 X98.682 Y112.608 E5.50551
G1 X97.983 Y112.55 E5.55277
G1 X97.855 Y112.667 E5.56443
G1 X97.522 Y112.974 E5.59492
G92 E0
G1 E-2 F2400
G1 X107.079 Y116.923 F7800
G1 E0 F2400
G1 F1800
G1 X107.079 Y117.394 E0.03169
G1 X106.816 Y118.899 E0.13448
G1 X106.48 Y118.995 E0.15805
G1 X106.48 Y117.422 E0.26391
G1 X106.37 Y117.464 E0.27182
G1 X106.089 Y117.572 E0.2921
G1 X106.067 Y117.58 E0.2937
G1 X105.88 Y117.643 E0.30694
G1 X105.88 Y119.166 E0.40939
G1 X105.281 Y119.336 E0.45135
G1 X105.281 Y117.846 E0.55165
G1 X104.819 Y118.002 E0.58445
G1 X104.681 Y117.903 E0.59588
G1 X104.681 Y119.5 E0.7033
G1 X104.081 Y119.643 E0.7448
G1 X104.081 Y110.558 E1.35628
G1 X104.057 Y110.568 E1.35806
G1 X103.718 Y110.704 E1.38262
G1 X103.594 Y110.747 E1.39148
G1 X103.482 Y110.786 E1.39946
G1 X103.482 Y119.762 E2.00357
G1 X103.29 Y119.8 E2.01677
G1 X102.882 Y119.863 E2.04451
G1 X102.882 Y110.976 E2.64261
G1 X102.747 Y111.017 E2.65211
G1 X102.283 Y111.131 E2.68429
G1 X102.283 Y112.508 E2.77699
G1 X101.899 Y112.162 E2.81178
G1 X101.683 Y112.185 E2.82637
G1 X101.683 Y111.247 E2.88947
G1 X101.655 Y111.251 E2.89137
G1 X101.564 Y111.264 E2.89755
G1 X101.084 Y111.337 E2.93028
G1 X101.084 Y112.247 E2.9915
G1 X100.876 Y112.269 E3.00553
G1 X100.484 Y112.285 E3.03195
G1 X100.484 Y111.428 E3.0896
G1 X99.884 Y111.517 E3.13039
G1 X99.884 Y112.31 E3.18376
G1 X99.85 Y112.31 E3.18607
G1 X99.404 Y112.301 E3.21612
G1 X99.285 Y112.291 E3.22415
G1 X99.285 Y111.427 E3.28227
G1 X98.685 Y111.337 E3.32308
G1 X98.685 Y112.24 E3.38387
G1 X98.086 Y112.19 E3.42437
G1 X98.086 Y111.247 E3.48783
G1 X98.011 Y111.236 E3.49292
G1 X97.758 Y111.186 E3.51024
G1 X97.51 Y111.137 E3.52728
G1 X97.486 Y111.131 E3.52895
G1 X97.486 Y112.508 E3.62163
G1 X97.111 Y112.853 E3.65596
G1 X97.111 Y117.893 E3.99512
G1 X97.486 Y118.29 E4.03193
G1 X97.486 Y119.947 E4.14343
G1 X98.086 Y120.015 E4.18405
G1 X98.086 Y118.577 E4.28085
G1 X98.685 Y118.611 E4.32127
G1 X98.685 Y120.083 E4.42034
G1 X98.945 Y120.112 E4.43793
G1 X99.285 Y119.809 E4.46862
G1 X99.285 Y118.646 E4.54689
G1 X99.503 Y118.658 E4.56158
G1 X99.535 Y118.659 E4.56378
G1 X99.884 Y118.659 E4.58727
G1 X99.884 Y119.273 E4.62857
G1 X100.396 Y119.73 E4.67477
G1 X100.484 Y119.808 E4.68267
G1 X100.484 Y118.649 E4.76065
G1 X100.912 Y118.633 E4.78945
G1 X100.934 Y118.632 E4.79093
G1 X101.084 Y118.621 E4.80106
G1 X101.084 Y120.083 E4.89951
G1 X101.683 Y120.015 E4.94012
G1 X101.683 Y118.575 E5.03707
G1 X102.046 Y118.547 E5.06155
G1 X102.283 Y118.292 E5.085
G1 X102.283 Y120.181 E5.21214
G92 E0
G1 E-2 F2400
G1 X106.48 Y110.58 F7800
G1 E0 F2400
G1 F1800
G1 X106.48 Y109.596 E0.06625
G1 X105.88 Y109.836 E0.10974
G1 X105.88 Y110.679 E0.16643
G1 X105.741 Y110.758 E0.17721
G1 X105.546 Y110.871 E0.19241
G1 X105.281 Y111.007 E0.21246
G1 X105.281 Y110.077 E0.27508
G1 X104.681 Y110.317 E0.31856
G1 X104.681 Y111.549 E0.40144
G92 E0
G1 E-2 F2400
G1 X96.887 Y120.098 F7800
G1 E0 F2400
G1 F1800
G1 X96.887 Y110.977 E0.6139
G1 X96.647 Y110.906 E0.63068
G1 X96.525 Y110.869 E0.63925
G1 X96.287 Y110.786 E0.65625
G1 X96.287 Y119.762 E1.26035
G1 X95.687 Y119.643 E1.30149
G1 X95.687 Y110.558 E1.91295
G1 X95.088 Y110.317 E1.95644
G1 X95.088 Y111.294 E2.02215
G1 X94.707 Y111.12 E2.05034
G1 X94.488 Y111.007 E2.06689
G1 X94.488 Y110.077 E2.12953
G1 X93.889 Y109.836 E2.17302
G1 X93.889 Y110.678 E2.22973
G1 X93.736 Y110.591 E2.24157
G1 X93.289 Y110.305 E2.27728
G1 X93.289 Y109.345 E2.34191
G92 E0
G1 E-2 F2400
G1 X95.088 Y119.738 F7800
G1 E0 F2400
G1 F1800
G1 X95.088 Y117.903 E0.12348
G1 X94.95 Y118.002 E0.13489
G1 X94.488 Y117.846 E0.1677
G1 X94.488 Y119.336 E0.26798
G1 X93.889 Y119.165 E0.30995
G1 X93.889 Y117.643 E0.41232
G1 X93.707 Y117.582 E0.42524
G1 X93.685 Y117.574 E0.42683
G1 X93.289 Y117.422 E0.45536
G1 X93.289 Y118.993 E0.5611
G1 X92.944 Y118.894 E0.58528
G1 X92.689 Y117.392 E0.68784
G1 X92.689 Y116.923 E0.71937
G92 E0
G1 E-2 F2400
G1 X92.541 Y92.021 F7800
G1 E0 F2400
G1 F1800
G1 X92.541 Y90.697 E0.0891
G1 X92.615 Y90.64 E0.09541
G1 X93.066 Y90.321 E0.13255
G1 X93.499 Y90.045 E0.1671
G1 X93.546 Y90.014 E0.17088
G1 X94.056 Y89.722 E0.21046
G1 X94.547 Y89.469 E0.2476
G1 X95.293 Y89.128 E0.30284
G1 X95.541 Y88.742 E0.33373
G1 X95.541 Y83.793 E0.66684
G1 X94.889 Y83.325 E0.72086
G1 X93.813 Y83.689 E0.79733
G1 X93.457 Y83.826 E0.82303
G1 X93.135 Y83.95 E0.84624
G1 X92.167 Y84.369 E0.91719
G1 X92.632 Y81.729 E1.09757
G1 X94.82 Y81.107 E1.25071
G1 X95.613 Y80.916 E1.30558
G1 X96.412 Y80.759 E1.36039
G1 X97.224 Y80.633 E1.41571
G1 X97.637 Y80.586 E1.44366
G1 X99.066 Y80.424 E1.54047
G1 X99.891 Y81.161 E1.61495
G1 X100.672 Y80.451 E1.68595
G1 X101.757 Y80.556 E1.75932
G1 X102.175 Y80.596 E1.78758
G1 X102.528 Y80.63 E1.81143
G1 X103.353 Y80.758 E1.86764
G1 X103.63 Y80.813 E1.88666
G1 X104.152 Y80.915 E1.92244
G1 X104.944 Y81.105 E1.97724
G1 X107.149 Y81.73 E2.13153
G1 X107.592 Y84.365 E2.31134
G1 X107.291 Y84.234 E2.33346
G1 X106.639 Y83.952 E2.38127
G1 X106.381 Y83.853 E2.39986
G1 X105.961 Y83.691 E2.43017
G1 X105.277 Y83.459 E2.47879
G1 X104.867 Y83.329 E2.50772
G1 X104.228 Y83.798 E2.56106
G1 X104.228 Y88.742 E2.89382
G1 X104.475 Y89.128 E2.92469
G1 X104.727 Y89.243 E2.94332
G1 X105.23 Y89.473 E2.98056
G1 X105.65 Y89.689 E3.01234
G1 X105.721 Y89.726 E3.01771
G1 X105.924 Y89.843 E3.03348
G1 X106.215 Y90.01 E3.05604
G1 X106.71 Y90.326 E3.09562
G1 X106.982 Y90.518 E3.11799
G1 X107.161 Y90.645 E3.13276
G1 X107.228 Y90.697 E3.13844
G1 X107.228 Y92.02 E3.2275
G1 X103.605 Y90.565 E3.49027
G1 X103.448 Y90.51 E3.50146
G1 X103.123 Y90.397 E3.52461
G1 X102.865 Y90.32 E3.54273
G1 X102.651 Y90.257 E3.55773
G1 X102.444 Y90.206 E3.57209
G1 X102.172 Y90.139 E3.59094
G1 X101.688 Y90.044 E3.62413
G1 X101.086 Y89.954 E3.66512
G1 X99.881 Y89.774 E3.74711
G1 X98.074 Y90.045 E3.87009
G1 X97.59 Y90.14 E3.90329
G1 X97.111 Y90.259 E3.93649
G1 X96.638 Y90.399 E3.96969
G1 X96.566 Y90.424 E3.97484
G1 X96.172 Y90.562 E4.00289
G1 X95.886 Y90.677 E4.02366
G1 X94.634 Y91.18 E4.11446
G1 X92.597 Y91.999 E4.26224
G1 X97.478 Y87.905 F7800
G1 F1800
G1 X97.73 Y88.137 E4.28533
G1 X97.983 Y88.369 E4.30842
G1 X98.682 Y88.311 E4.35568
G1 X99.385 Y88.252 E4.40311
G1 X99.843 Y88.243 E4.43394
G1 X99.881 Y88.242 E4.43651
G1 X100.126 Y88.252 E4.45301
G1 X100.903 Y88.284 E4.50537
G1 X101.774 Y88.375 E4.56434
G1 X102.291 Y87.909 E4.61116
G1 X102.291 Y83.172 E4.92999
G1 X101.864 Y82.72 E4.97183
G1 X100.24 Y82.627 E5.08136
G1 X100.21 Y82.627 E5.08336
G1 X98.886 Y82.652 E5.17251
G1 X98.863 Y82.653 E5.17401
G1 X97.894 Y82.727 E5.23942
G1 X97.478 Y83.177 E5.28068
G1 X97.478 Y87.845 E5.59486
G92 E0
G1 E-2 F2400
G1 X107.079 Y83.996 F7800
G1 E0 F2400
G1 F1800
G1 X107.079 Y83.527 E0.03154
G1 X106.826 Y82.02 E0.13441
G1 X106.48 Y81.922 E0.15863
G1 X106.48 Y83.497 E0.26468
G1 X106.089 Y83.347 E0.29286
G1 X106.067 Y83.339 E0.29443
G1 X105.88 Y83.276 E0.30771
G1 X105.88 Y81.752 E0.41027
G1 X105.281 Y81.582 E0.45221
G1 X105.281 Y83.075 E0.55269
G1 X104.8 Y82.923 E0.58662
G1 X104.681 Y83.01 E0.59653
G1 X104.681 Y81.42 E0.70359
G1 X104.081 Y81.276 E0.74509
G1 X104.081 Y90.361 E1.35656
G1 X103.734 Y90.221 E1.38179
G1 X103.568 Y90.164 E1.39356
G1 X103.482 Y90.133 E1.39973
G1 X103.482 Y81.157 E2.00386
G1 X103.289 Y81.119 E2.01707
G1 X102.882 Y81.056 E2.04479
G1 X102.882 Y89.943 E2.6429
G1 X102.747 Y89.903 E2.65239
G1 X102.532 Y89.85 E2.66733
G1 X102.283 Y89.788 E2.68458
G1 X102.283 Y88.411 E2.77727
G1 X101.899 Y88.757 E2.81207
G1 X101.683 Y88.735 E2.82665
G1 X101.683 Y89.672 E2.88973
G1 X101.14 Y89.591 E2.9267
G1 X101.084 Y89.582 E2.93053
G1 X101.084 Y88.672 E2.99179
G1 X100.876 Y88.651 E3.00582
G1 X100.484 Y88.634 E3.03224
G1 X100.484 Y89.493 E3.09003
G1 X99.884 Y89.403 E3.13083
G1 X99.884 Y88.609 E3.18429
G1 X99.85 Y88.609 E3.18659
G1 X99.404 Y88.619 E3.21665
G1 X99.285 Y88.629 E3.22468
G1 X99.285 Y89.492 E3.2828
G1 X98.685 Y89.582 E3.3236
G1 X98.685 Y88.679 E3.3844
G1 X98.086 Y88.729 E3.4249
G1 X98.086 Y89.672 E3.48836
G1 X98.011 Y89.683 E3.49345
G1 X97.51 Y89.782 E3.5278
G1 X97.486 Y89.788 E3.52948
G1 X97.486 Y88.411 E3.62216
G1 X97.111 Y88.066 E3.65649
G1 X97.111 Y83.033 E3.99523
G1 X97.486 Y82.628 E4.03241
G1 X97.486 Y80.972 E4.14383
G1 X97.678 Y80.95 E4.15682
G1 X98.086 Y80.904 E4.18444
G1 X98.086 Y82.344 E4.28137
G1 X98.685 Y82.299 E4.32184
G1 X98.685 Y80.836 E4.42027
G1 X98.944 Y80.807 E4.4378
G1 X99.285 Y81.111 E4.46855
G1 X99.285 Y82.277 E4.54704
G1 X99.884 Y82.266 E4.5874
G1 X99.884 Y81.646 E4.62909
G1 X99.893 Y81.655 E4.62991
G1 X100.484 Y81.118 E4.68362
G1 X100.484 Y82.274 E4.76142
G1 X101.084 Y82.308 E4.80184
G1 X101.084 Y80.859 E4.89934
G1 X101.683 Y80.917 E4.93988
G1 X101.683 Y82.343 E5.03581
G1 X102.031 Y82.362 E5.05927
G1 X102.283 Y82.629 E5.08394
G1 X102.283 Y80.742 E5.21095
G92 E0
G1 E-2 F2400
G1 X106.48 Y91.574 F7800
G1 E0 F2400
G1 F1800
G1 X106.48 Y90.615 E0.06459
G1 X106.025 Y90.323 E0.10096
G1 X105.88 Y90.24 E0.11216
G1 X105.88 Y91.083 E0.16889
G1 X105.281 Y90.843 E0.21238
G1 X105.281 Y89.912 E0.27501
G1 X105.07 Y89.803 E0.29096
G1 X104.681 Y89.626 E0.31974
G1 X104.681 Y90.852 E0.40227
G92 E0
G1 E-2 F2400
G1 X96.887 Y90.185 F7800
G1 E0 F2400
G1 F1800
G1 X96.887 Y81.056 E0.61438
G1 X96.476 Y81.12 E0.64238
G1 X96.287 Y81.157 E0.65531
G1 X96.287 Y90.133 E1.25942
G1 X96.044 Y90.218 E1.27677
G1 X95.749 Y90.336 E1.29812
G1 X95.687 Y90.361 E1.3026
G1 X95.687 Y81.276 E1.91409
G1 X95.088 Y81.42 E1.95559
G1 X95.088 Y83.016 E2.063
G1 X94.95 Y82.917 E2.07442
G1 X94.488 Y83.073 E2.10723
G1 X94.488 Y81.582 E2.20755
G1 X93.889 Y81.753 E2.2495
G1 X93.889 Y83.276 E2.35199
G1 X93.707 Y83.337 E2.3649
G1 X93.685 Y83.345 E2.36649
G1 X93.325 Y83.484 E2.39245
G1 X93.289 Y83.497 E2.39502
G1 X93.289 Y81.923 E2.50095
G1 X92.953 Y82.019 E2.52445
G1 X92.689 Y83.518 E2.62686
G1 X92.689 Y83.996 E2.65905
G92 E0
G1 E-2 F2400
G1 X95.088 Y90.852 F7800
G1 E0 F2400
G1 F1800
G1 X95.088 Y89.625 E0.08256
G1 X94.707 Y89.799 E0.11075
G1 X94.488 Y89.912 E0.1273
G1 X94.488 Y90.843 E0.18996
G1 X93.889 Y91.084 E0.23345
G1 X93.889 Y90.241 E0.2902
G1 X93.736 Y90.328 E0.30204
G1 X93.696 Y90.354 E0.30523
G1 X93.289 Y90.614 E0.33775
G1 X93.289 Y91.575 E0.40242
G92 E0
G1 E-2 F2400
G1 X99.503 Y114.214 F7800
G1 E0 F2400
;TYPE:External perimeter
G1 F1039.9971
G1 X99.298 Y114.296 E0.01488
G1 X99.11 Y114.412 E0.02975
G1 X98.944 Y114.558 E0.04463
G1 X98.805 Y114.73 E0.0595
G1 X98.697 Y114.923 E0.07438
G1 X98.623 Y115.131 E0.08925
G1 X98.586 Y115.349 E0.10413
G1 X98.586 Y115.57 E0.119
G1 X98.623 Y115.788 E0.13388
G1 X98.697 Y115.996 E0.14876
G1 X98.805 Y116.189 E0.16363
G1 X98.944 Y116.361 E0.17851
G1 X99.11 Y116.507 E0.19338
G1 X99.298 Y116.623 E0.20826
