; generated by SuperSlicer 2.4 on 2024-05-14 at 21:41:11 UTC

; 

; external perimeters extrusion width = 0.42mm
; perimeters extrusion width = 0.46mm
; infill extrusion width = 0.44mm
; solid infill extrusion width = 0.46mm
; top infill extrusion width = 0.44mm
; support material extrusion width = 0.40mm
; first layer extrusion width = 0.60mm

; object:{"name":"Test_Endcap","id":"Test_Endcap.stl id:0 copy 0","object_center":[100.000000,100.000000,0.000000],"boundingbox_center":[100.000000,100.000000,12.750000],"boundingbox_size":[34.000000,34.000000,25.500000]}
; Total objects to print: 1
M486 T1
; plater:{"center":[100.000000,100.000000,0.000000],"boundingbox_center":[100.000000,100.000000,12.750000],"boundingbox_size":[34.000000,34.000000,25.500000]}

M140 S70 ; set bed temperature
M104 S230 ; set temperature
;TYPE:Custom
G28 ; home all axes
G1 Z5 F5000 ; lift nozzle
M107
G21 ; set units to millimeters
G90 ; use absolute coordinates
M82 ; use absolute distances for extrusion
G92 E0
; Filament gcode
;_TOOLCHANGE 0
M109 S230 ; set temperature and wait for it to be reached
M190 S70 ; set bed temperature and wait for it to be reached
M107
;LAYER_CHANGE
;Z:0.3
;HEIGHT:0.3
G1 Z0.3 F7800
G1 E-2 F2400
G1 X80.51 Y80.51 F7800
G1 E0 F2400
;TYPE:Skirt
;WIDTH:0.44
G1 F1800
G1 X78.409 Y82.61 E0.13917
G1 X76.743 Y84.578 E0.25996
G1 X75.035 Y87.659 E0.42501
G1 X73.621 Y91.074 E0.59814
G1 X72.835 Y93.529 E0.71893
G1 X72.437 Y97.029 E0.88398
G1 X72.437 Y102.971 E1.16232
G1 X72.65 Y105.54 E1.28311
G1 X73.621 Y108.926 E1.44815
G1 X75.035 Y112.341 E1.62129
G1 X76.216 Y114.633 E1.74208
G1 X78.409 Y117.39 E1.90712
G1 X82.61 Y121.591 E2.18546
G1 X84.578 Y123.257 E2.30626
G1 X87.659 Y124.965 E2.4713
G1 X91.074 Y126.379 E2.64443
G1 X93.529 Y127.165 E2.76523
G1 X97.029 Y127.563 E2.93027
G1 X102.971 Y127.563 E3.20861
G1 X105.54 Y127.35 E3.3294
G1 X108.926 Y126.379 E3.49445
G1 X112.341 Y124.965 E3.66758
G1 X114.633 Y123.784 E3.78837
G1 X117.39 Y121.591 E3.95342
G1 X121.591 Y117.39 E4.23175
G1 X123.257 Y115.422 E4.35255
G1 X124.965 Y112.341 E4.51759
G1 X126.379 Y108.926 E4.69073
G1 X127.165 Y106.471 E4.81152
G1 X127.563 Y102.971 E4.97656
G1 X127.563 Y97.029 E5.2549
G1 X127.35 Y94.46 E5.37569
G1 X126.379 Y91.074 E5.54074
G1 X124.965 Y87.659 E5.71387
G1 X123.784 Y85.367 E5.83466
G1 X121.591 Y82.61 E5.99971
G1 X117.39 Y78.409 E6.27805
G1 X115.422 Y76.743 E6.39884
G1 X112.341 Y75.035 E6.56389
G1 X108.926 Y73.621 E6.73702
G1 X106.471 Y72.835 E6.85781
G1 X102.971 Y72.437 E7.02286
G1 X97.029 Y72.437 E7.30119
G1 X94.46 Y72.65 E7.42199
G1 X91.074 Y73.621 E7.58703
G1 X87.659 Y75.035 E7.76016
G1 X85.367 Y76.216 E7.88096
G1 X82.61 Y78.409 E8.046
G1 X80.552 Y80.467 E8.18236
G1 X80.818 Y80.733 F7800
G1 F1800
G1 X78.675 Y82.876 E8.32434
G1 X77.074 Y84.762 E8.44024
G1 X75.383 Y87.803 E8.60327
G1 X73.968 Y91.217 E8.77641
G1 X73.211 Y93.572 E8.89231
G1 X72.812 Y97.029 E9.05534
G1 X72.812 Y102.971 E9.33368
G1 X73.014 Y105.436 E9.44958
G1 X73.968 Y108.783 E9.61261
G1 X75.383 Y112.197 E9.78574
G1 X76.512 Y114.398 E9.90164
G1 X78.675 Y117.124 E10.06468
G1 X82.876 Y121.325 E10.34301
G1 X84.762 Y122.926 E10.45891
G1 X87.803 Y124.617 E10.62195
G1 X91.217 Y126.032 E10.79508
G1 X93.572 Y126.789 E10.91098
G1 X97.029 Y127.188 E11.07401
G1 X102.971 Y127.188 E11.35235
G1 X105.436 Y126.986 E11.46825
G1 X108.783 Y126.032 E11.63128
G1 X112.197 Y124.617 E11.80442
G1 X114.398 Y123.488 E11.92032
G1 X117.124 Y121.325 E12.08335
G1 X121.325 Y117.124 E12.36169
G1 X122.926 Y115.238 E12.47759
G1 X124.617 Y112.197 E12.64062
G1 X126.032 Y108.783 E12.81375
G1 X126.789 Y106.428 E12.92965
G1 X127.188 Y102.971 E13.09269
G1 X127.188 Y97.029 E13.37103
G1 X126.986 Y94.564 E13.48692
G1 X126.032 Y91.217 E13.64996
G1 X124.617 Y87.803 E13.82309
G1 X123.488 Y85.602 E13.93899
G1 X121.325 Y82.876 E14.10202
G1 X117.124 Y78.675 E14.38036
G1 X115.238 Y77.074 E14.49626
G1 X112.197 Y75.383 E14.6593
G1 X108.783 Y73.968 E14.83243
G1 X106.428 Y73.211 E14.94833
G1 X102.971 Y72.812 E15.11136
G1 X97.029 Y72.812 E15.3897
G1 X94.564 Y73.014 E15.5056
G1 X91.217 Y73.968 E15.66863
G1 X87.803 Y75.383 E15.84176
G1 X85.602 Y76.512 E15.95766
G1 X82.876 Y78.675 E16.1207
G1 X80.86 Y80.69 E16.25424
G92 E0
G1 E-2 F2400
; printing object Test_Endcap.stl id:0 copy 0
M486 S0
G1 X93.786 Y89.67 F7800
G1 E0 F2400
;TYPE:External perimeter
;WIDTH:0.604
G1 F1800
G1 X97.09 Y88.302 E0.24064
G1 X102.91 Y88.302 E0.63242
G1 X106.214 Y89.67 E0.87305
G1 X110.33 Y93.786 E1.26483
G1 X111.698 Y97.09 E1.50547
G1 X111.698 Y102.91 E1.89725
G1 X110.33 Y106.214 E2.13788
G1 X106.214 Y110.33 E2.52966
G1 X102.91 Y111.698 E2.7703
G1 X97.09 Y111.698 E3.16208
G1 X93.786 Y110.33 E3.40271
G1 X89.67 Y106.214 E3.79449
G1 X88.302 Y102.91 E4.03513
G1 X88.302 Y97.09 E4.42691
G1 X89.67 Y93.786 E4.66755
G1 X93.744 Y89.713 E5.05528
;WIPE_START
G1 X94.133 Y89.87 F7800
;WIPE_END
G92 E0
G1 E-2 F2400
G1 X104.555 Y98.881 F7800
G1 E0 F2400
G1 F1800
G1 X104.268 Y99.116 E0.025
G1 X104.136 Y99.285 E0.03941
G1 X103.977 Y99.621 E0.06443
G1 X103.923 Y99.989 E0.08945
G1 X103.938 Y100.191 E0.10311
G1 X103.982 Y100.389 E0.11676
G1 X104.141 Y100.725 E0.14178
G1 X104.398 Y101.009 E0.16756
G1 X104.707 Y101.194 E0.19183
G1 X109.521 Y103.188 E0.54252
G1 X109.843 Y103.271 E0.56491
G1 X110.047 Y103.28 E0.57864
G1 X110.396 Y103.221 E0.60247
G1 X110.715 Y103.067 E0.6263
G1 X110.877 Y102.942 E0.64003
G1 X111.098 Y102.68 E0.66313
G1 X111.194 Y102.5 E0.67686
G1 X111.292 Y102.16 E0.70069
G1 X111.292 Y97.84 E0.99141
G1 X111.194 Y97.5 E1.01525
G1 X111.098 Y97.32 E1.02897
G1 X110.877 Y97.058 E1.05208
G1 X110.724 Y96.939 E1.06509
G1 X110.556 Y96.844 E1.07809
G1 X110.219 Y96.736 E1.10192
G1 X109.854 Y96.726 E1.12648
G1 X109.521 Y96.812 E1.14961
G1 X104.61 Y98.858 E1.50766
;WIPE_START
G1 X104.196 Y98.704 F7800
;WIPE_END
G92 E0
G1 E-2 F2400
G1 X97.533 Y103.256 F7800
G1 E0 F2400
G1 F1800
G1 X97.358 Y102.928 E0.02502
G1 X97.218 Y102.766 E0.03943
G1 X96.92 Y102.544 E0.06445
G1 X96.559 Y102.415 E0.09023
G1 X96.177 Y102.396 E0.11601
G1 X95.827 Y102.484 E0.14028
G1 X90.859 Y104.556 E0.50252
G1 X90.591 Y104.77 E0.52563
G1 X90.461 Y104.927 E0.53935
G1 X90.304 Y105.232 E0.56246
G1 X90.25 Y105.429 E0.57618
G1 X90.23 Y105.783 E0.60002
G1 X90.312 Y106.138 E0.62457
G1 X90.488 Y106.457 E0.6491
G1 X93.421 Y109.405 E0.92898
G1 X93.687 Y109.605 E0.95139
G1 X93.872 Y109.691 E0.96512
G1 X94.217 Y109.77 E0.98895
G1 X94.571 Y109.75 E1.01278
G1 X94.757 Y109.699 E1.02579
G1 X94.935 Y109.622 E1.03879
G1 X95.224 Y109.418 E1.06263
G1 X95.451 Y109.133 E1.08716
G1 X97.516 Y104.173 E1.44871
G1 X97.601 Y103.834 E1.47223
G1 X97.606 Y103.62 E1.48664
G1 X97.545 Y103.315 E1.50762
;WIPE_START
G1 X97.777 Y102.938 F7800
;WIPE_END
G92 E0
G1 E-2 F2400
G1 X95.623 Y100.986 F7800
G1 E0 F2400
G1 F1800
G1 X95.859 Y100.725 E0.02369
G1 X96.018 Y100.389 E0.04871
G1 X96.065 Y100.18 E0.06312
G1 X96.065 Y99.82 E0.08738
G1 X96.02 Y99.622 E0.10103
G1 X95.947 Y99.433 E0.11469
G1 X95.741 Y99.123 E0.13971
G1 X95.445 Y98.881 E0.16547
G1 X90.479 Y96.812 E0.52755
G1 X90.146 Y96.726 E0.55069
G1 X89.781 Y96.736 E0.57524
G1 X89.444 Y96.844 E0.59908
G1 X89.267 Y96.945 E0.6128
G1 X89.003 Y97.181 E0.63663
G1 X88.809 Y97.49 E0.66119
G1 X88.711 Y97.83 E0.68502
G1 X88.698 Y98.012 E0.69734
G1 X88.708 Y102.16 E0.9765
G1 X88.806 Y102.5 E1.0003
G1 X88.902 Y102.68 E1.01403
G1 X89.123 Y102.942 E1.03714
G1 X89.285 Y103.067 E1.05086
G1 X89.604 Y103.221 E1.07469
G1 X89.953 Y103.28 E1.09852
G1 X90.157 Y103.271 E1.11225
G1 X90.479 Y103.188 E1.13464
G1 X95.293 Y101.194 E1.48533
G1 X95.577 Y101.024 E1.50765
;WIPE_START
G1 X96.004 Y101.105 F7800
;WIPE_END
G92 E0
G1 E-2 F2400
G1 X96.177 Y97.604 F7800
G1 E0 F2400
G1 F1800
G1 X96.548 Y97.585 E0.02502
G1 X96.743 Y97.531 E0.03868
G1 X96.929 Y97.449 E0.05233
G1 X97.227 Y97.227 E0.07735
G1 X97.456 Y96.92 E0.10313
G1 X97.581 Y96.57 E0.12815
G1 X97.606 Y96.368 E0.14181
G1 X97.601 Y96.166 E0.15547
G1 X97.516 Y95.827 E0.17899
G1 X95.451 Y90.867 E0.54053
G1 X95.224 Y90.582 E0.56507
G1 X94.926 Y90.371 E0.58963
G1 X94.582 Y90.251 E0.61418
G1 X94.228 Y90.231 E0.63801
G1 X94.027 Y90.262 E0.65174
G1 X93.696 Y90.389 E0.67557
G1 X93.421 Y90.595 E0.69868
G1 X90.595 Y93.421 E0.96771
G1 X90.389 Y93.696 E0.99082
G1 X90.258 Y94.037 E1.01538
G1 X90.228 Y94.4 E1.03993
G1 X90.297 Y94.748 E1.06377
G1 X90.378 Y94.935 E1.07749
G1 X90.582 Y95.224 E1.10132
G1 X90.859 Y95.444 E1.12516
G1 X91.023 Y95.526 E1.13745
G1 X95.827 Y97.516 E1.48742
G1 X96.118 Y97.589 E1.50765
;WIPE_START
G1 X96.359 Y97.959 F7800
;WIPE_END
G92 E0
G1 E-2 F2400
G1 X99.099 Y95.711 F7800
G1 E0 F2400
G1 F1800
G1 X99.123 Y95.741 E0.0026
G1 X99.442 Y95.954 E0.02838
G1 X99.808 Y96.065 E0.05417
G1 X100.18 Y96.065 E0.07919
G1 X100.378 Y96.02 E0.09284
G1 X100.567 Y95.947 E0.1065
G1 X100.877 Y95.741 E0.13152
G1 X101.112 Y95.454 E0.15654
G1 X101.199 Y95.282 E0.16944
G1 X103.188 Y90.479 E0.51939
G1 X103.271 Y90.157 E0.54178
G1 X103.28 Y89.953 E0.5555
G1 X103.221 Y89.604 E0.57933
G1 X103.062 Y89.275 E0.60389
G1 X102.819 Y89.003 E0.62845
G1 X102.51 Y88.809 E0.653
G1 X102.16 Y88.708 E0.67756
G1 X97.84 Y88.708 E0.96828
G1 X97.49 Y88.809 E0.99284
G1 X97.181 Y89.003 E1.01739
G1 X96.938 Y89.275 E1.04195
G1 X96.779 Y89.604 E1.06651
G1 X96.718 Y89.963 E1.09106
G1 X96.758 Y90.315 E1.1149
G1 X96.816 Y90.489 E1.12721
G1 X98.881 Y95.445 E1.48858
G1 X99.061 Y95.665 E1.50769
;WIPE_START
G1 X98.958 Y96.085 F7800
;WIPE_END
G92 E0
G1 E-2 F2400
G1 X102.429 Y95.987 F7800
G1 E0 F2400
G1 F1800
G1 X102.393 Y96.357 E0.02502
G1 X102.419 Y96.57 E0.03943
G1 X102.544 Y96.92 E0.06445
G1 X102.766 Y97.218 E0.08947
G1 X102.928 Y97.358 E0.10388
G1 X103.246 Y97.528 E0.12814
G1 X103.452 Y97.585 E0.14255
G1 X103.823 Y97.604 E0.16757
G1 X104.173 Y97.516 E0.19184
G1 X108.977 Y95.526 E0.54181
G1 X109.141 Y95.444 E0.55411
G1 X109.418 Y95.224 E0.57794
G1 X109.622 Y94.935 E0.60177
G1 X109.703 Y94.748 E0.61549
G1 X109.772 Y94.4 E0.63933
G1 X109.742 Y94.037 E0.66388
G1 X109.611 Y93.696 E0.68844
G1 X109.405 Y93.421 E0.71158
G1 X106.465 Y90.495 E0.99073
G1 X106.294 Y90.385 E1.00443
G1 X105.973 Y90.262 E1.02754
G1 X105.772 Y90.231 E1.04126
G1 X105.429 Y90.25 E1.06437
G1 X105.232 Y90.304 E1.07809
G1 X104.927 Y90.461 E1.1012
G1 X104.77 Y90.591 E1.11492
G1 X104.549 Y90.868 E1.13876
G1 X102.452 Y95.932 E1.50766
;WIPE_START
G1 X102.051 Y96.116 F7800
;WIPE_END
G92 E0
G1 E-2 F2400
G1 X103.441 Y102.415 F7800
G1 E0 F2400
G1 F1800
G1 X103.091 Y102.541 E0.02502
G1 X102.919 Y102.649 E0.03868
G1 X102.766 Y102.782 E0.05233
G1 X102.544 Y103.08 E0.07735
G1 X102.419 Y103.43 E0.10237
G1 X102.394 Y103.632 E0.11603
G1 X102.399 Y103.834 E0.12968
G1 X102.484 Y104.173 E0.15321
G1 X104.549 Y109.133 E0.51475
G1 X104.77 Y109.409 E0.53856
G1 X104.927 Y109.539 E0.55229
G1 X105.232 Y109.696 E0.5754
G1 X105.429 Y109.75 E0.58912
G1 X105.783 Y109.77 E0.61295
G1 X106.128 Y109.691 E0.63679
G1 X106.313 Y109.605 E0.65051
G1 X106.579 Y109.405 E0.67292
G1 X109.512 Y106.457 E0.9528
G1 X109.688 Y106.138 E0.97733
G1 X109.77 Y105.783 E1.00189
G1 X109.75 Y105.429 E1.02572
G1 X109.696 Y105.232 E1.03944
G1 X109.539 Y104.927 E1.06255
G1 X109.409 Y104.77 E1.07627
G1 X109.141 Y104.556 E1.09938
G1 X108.977 Y104.474 E1.11167
G1 X104.173 Y102.484 E1.46165
G1 X103.823 Y102.396 E1.48592
G1 X103.501 Y102.412 E1.50766
;WIPE_START
G1 X103.163 Y102.128 F7800
;WIPE_END
G92 E0
G1 E-2 F2400
G1 X100.877 Y104.259 F7800
G1 E0 F2400
G1 F1800
G1 X100.558 Y104.046 E0.02578
G1 X100.192 Y103.935 E0.05156
G1 X99.82 Y103.935 E0.07658
G1 X99.611 Y103.982 E0.09099
G1 X99.275 Y104.141 E0.11601
G1 X98.991 Y104.398 E0.1418
G1 X98.806 Y104.707 E0.16606
G1 X96.812 Y109.521 E0.51675
G1 X96.726 Y109.854 E0.53987
G1 X96.736 Y110.208 E0.5637
G1 X96.784 Y110.406 E0.57742
G1 X96.938 Y110.725 E0.60126
G1 X97.181 Y110.997 E0.62581
G1 X97.49 Y111.191 E0.65037
G1 X97.84 Y111.292 E0.6749
G1 X101.988 Y111.302 E0.95406
G1 X102.17 Y111.289 E0.96637
G1 X102.5 Y111.194 E0.98948
G1 X102.68 Y111.098 E1.00321
G1 X102.942 Y110.877 E1.02632
G1 X103.067 Y110.715 E1.04004
G1 X103.221 Y110.396 E1.06387
G1 X103.28 Y110.047 E1.0877
G1 X103.271 Y109.843 E1.10143
G1 X103.188 Y109.521 E1.12384
G1 X101.119 Y104.555 E1.48592
G1 X100.915 Y104.305 E1.50765
;WIPE_START
G1 X100.942 Y103.864 F7800
;WIPE_END
G92 E0
G1 E-2 F2400
G1 X109.103 Y96.165 F7800
G1 E0 F2400
;TYPE:Internal perimeter
G1 F900
G1 X109.814 Y95.598 E0.0612
G1 X110.245 Y94.991 E0.11132
G1 X110.75 Y96.211 E0.20024
G1 X109.163 Y96.167 E0.30712
G92 E0
G1 E-2 F2400
G1 X109.66 Y103.804 F7800
G1 E0 F2400
G1 F900
G1 X110.081 Y103.822 E0.02836
G1 X110.786 Y103.702 E0.07647
G1 X110.264 Y104.961 E0.16822
G1 X109.79 Y104.383 E0.21854
G1 X109.523 Y104.171 E0.2415
G1 X109.639 Y103.86 E0.26381
G92 E0
G1 E-2 F2400
G1 X104.171 Y109.523 F7800
G1 E0 F2400
G1 F900
G1 X104.383 Y109.79 E0.02296
G1 X104.961 Y110.264 E0.07329
G1 X103.702 Y110.786 E0.16503
G1 X103.822 Y110.081 E0.21314
G1 X103.804 Y109.66 E0.2415
G1 X104.114 Y109.544 E0.26381
G92 E0
G1 E-2 F2400
G1 X96.324 Y110.797 F7800
G1 E0 F2400
G1 F900
G1 X94.991 Y110.245 E0.0971
G1 X95.598 Y109.814 E0.14723
G1 X96.165 Y109.103 E0.20843
G1 X96.198 Y110.28 E0.28769
G1 X96.309 Y110.738 E0.31944
G92 E0
G1 E-2 F2400
G1 X89.736 Y104.961 F7800
G1 E0 F2400
G1 F900
G1 X89.214 Y103.702 E0.09175
G1 X89.919 Y103.822 E0.13986
G1 X90.34 Y103.804 E0.16822
G1 X90.477 Y104.171 E0.19456
G1 X90.21 Y104.383 E0.21753
G1 X89.774 Y104.915 E0.26381
G92 E0
G1 E-2 F2400
G1 X89.25 Y96.211 F7800
G1 E0 F2400
G1 F900
G1 X89.755 Y94.991 E0.08892
G1 X90.186 Y95.598 E0.13904
G1 X90.897 Y96.165 E0.20024
G1 X89.31 Y96.209 E0.30712
G92 E0
G1 E-2 F2400
G1 X94.991 Y89.755 F7800
G1 E0 F2400
G1 F900
G1 X96.298 Y89.214 E0.09525
G1 X96.173 Y89.948 E0.14538
G1 X96.217 Y90.337 E0.17172
G1 X95.842 Y90.492 E0.19905
G1 X95.598 Y90.186 E0.22539
G1 X95.04 Y89.79 E0.27148
G92 E0
G1 E-2 F2400
G1 X103.702 Y89.214 F7800
G1 E0 F2400
G1 F900
G1 X104.961 Y89.736 E0.09175
G1 X104.383 Y90.21 E0.14207
G1 X104.171 Y90.477 E0.16503
G1 X103.804 Y90.34 E0.19138
G1 X103.822 Y89.919 E0.21974
G1 X103.712 Y89.273 E0.26381
G92 E0
G1 E-2 F2400
G1 X101.52 Y95.808 F7800
G1 E0 F2400
G1 F1800
G1 X101.89 Y95.961 E0.02694
G1 X101.85 Y96.364 E0.05421
G1 X101.891 Y96.695 E0.07667
G1 X102.063 Y97.177 E0.11111
G1 X102.368 Y97.588 E0.14554
G1 X102.621 Y97.806 E0.16801
G1 X103.044 Y98.032 E0.20032
G1 X103.366 Y98.121 E0.22279
G1 X104.558 Y98.18 E0.30313
G1 X103.879 Y98.737 E0.36225
G1 X103.674 Y99 E0.38471
G1 X103.455 Y99.463 E0.41915
G1 X103.38 Y99.969 E0.45358
G1 X103.402 Y100.271 E0.47395
G1 X103.469 Y100.566 E0.49431
G1 X103.687 Y101.028 E0.52874
G1 X104.412 Y101.827 E0.60133
G1 X103.334 Y101.88 E0.67391
G1 X102.853 Y102.053 E0.70835
G1 X102.597 Y102.214 E0.72871
G1 X102.368 Y102.412 E0.74907
G1 X102.063 Y102.823 E0.78351
G1 X101.891 Y103.305 E0.81794
G1 X101.854 Y103.605 E0.8383
G1 X101.864 Y104.038 E0.86747
G1 X101.504 Y104.172 E0.89339
G1 X101.243 Y103.855 E0.92104
G1 X100.791 Y103.553 E0.9576
G1 X100.272 Y103.395 E0.99415
G1 X99.76 Y103.395 E1.02859
G1 X99.434 Y103.469 E1.05105
G1 X98.972 Y103.687 E1.08549
G1 X98.125 Y104.454 E1.16237
G1 X98.147 Y103.574 E1.22167
G1 X98.047 Y103.072 E1.2561
G1 X97.806 Y102.621 E1.29054
G1 X97.588 Y102.368 E1.313
G1 X97.177 Y102.063 E1.34744
G1 X96.666 Y101.88 E1.38399
G1 X95.588 Y101.827 E1.45658
G1 X96.313 Y101.028 E1.52916
G1 X96.531 Y100.566 E1.5636
G1 X96.605 Y100.24 E1.58606
G1 X96.605 Y99.76 E1.61838
G1 X96.538 Y99.465 E1.63874
G1 X96.429 Y99.182 E1.6591
G1 X96.145 Y98.757 E1.69354
G1 X95.442 Y98.18 E1.75477
G1 X96.634 Y98.121 E1.83511
G1 X96.926 Y98.041 E1.85548
G1 X97.202 Y97.918 E1.87584
G1 X97.613 Y97.613 E1.91027
G1 X97.937 Y97.177 E1.94683
G1 X98.109 Y96.695 E1.98127
G1 X98.146 Y96.395 E2.00163
G1 X98.136 Y95.962 E2.0308
G1 X98.496 Y95.828 E2.05671
G1 X98.757 Y96.145 E2.08436
G1 X99.209 Y96.447 E2.12092
G1 X99.728 Y96.605 E2.15748
G1 X100.24 Y96.605 E2.19191
G1 X100.535 Y96.538 E2.21227
G1 X100.818 Y96.429 E2.23264
G1 X101.243 Y96.145 E2.26707
G1 X101.482 Y95.854 E2.29243
G1 X101.813 Y95.66 F7800
;TYPE:Gap fill
;WIDTH:0.974151
G1 F1200
G1 X101.851 Y95.568 E2.30371
G1 X101.916 Y95.399 E2.32431
G1 X101.979 Y95.236 E2.3441
G1 X102.845 Y93.146 E2.60086
