; generated by SuperSlicer 2.4 on 2024-05-14 at 19:49:58 UTC

; 

; external perimeters extrusion width = 0.42mm
; perimeters extrusion width = 0.46mm
; infill extrusion width = 0.44mm
; solid infill extrusion width = 0.46mm
; top infill extrusion width = 0.44mm
; support material extrusion width = 0.40mm
; first layer extrusion width = 0.60mm

; object:{"name":"Test_Body_split_C","id":"Test_Body_split_C.stl id:0 copy 0","object_center":[100.000000,100.000000,0.000000],"boundingbox_center":[100.000000,100.000000,17.500000],"boundingbox_size":[44.000001,44.000001,35.000000]}
; Total objects to print: 1
M486 T1
; plater:{"center":[100.000000,100.000000,0.000000],"boundingbox_center":[100.000000,100.000000,17.500000],"boundingbox_size":[44.000001,44.000001,35.000000]}

M140 S70 ; set bed temperature
M104 S230 ; set temperature
;TYPE:Custom
G28 ; home all axes
G1 Z5 F5000 ; lift nozzle
M107
G21 ; set units to millimeters
G90 ; use absolute coordinates
M82 ; use absolute distances for extrusion
G92 E0
; Filament gcode
;_TOOLCHANGE 0
M109 S230 ; set temperature and wait for it to be reached
M190 S70 ; set bed temperature and wait for it to be reached
M107
;LAYER_CHANGE
;Z:0.3
;HEIGHT:0.3
G1 Z0.3 F7800
G1 E-2 F2400
G1 X74.058 Y74.954 F7800
G1 E0 F2400
;TYPE:Skirt
;WIDTH:0.44
G1 F1800
G1 X72.561 Y76.605 E0.10442
G1 X70.6 Y79.121 E0.25387
G1 X69.366 Y80.978 E0.35828
G1 X67.669 Y84.032 E0.52202
G1 X66.335 Y87.668 E0.70344
G1 X65.937 Y91.168 E0.86848
G1 X65.937 Y108.832 E1.69601
G1 X66.418 Y112.674 E1.87743
G1 X67.669 Y115.968 E2.04247
G1 X69.366 Y119.022 E2.20621
G1 X71.168 Y121.655 E2.35566
G1 X73.399 Y124.345 E2.51939
G1 X75.655 Y126.601 E2.66884
G1 X78.345 Y128.832 E2.83258
G1 X80.978 Y130.634 E2.98203
G1 X84.032 Y132.331 E3.14576
G1 X87.668 Y133.665 E3.32718
G1 X91.168 Y134.063 E3.49223
G1 X108.832 Y134.063 E4.31975
G1 X112.674 Y133.582 E4.50117
G1 X115.968 Y132.331 E4.66622
G1 X119.022 Y130.634 E4.82995
G1 X121.655 Y128.832 E4.9794
G1 X124.345 Y126.601 E5.14313
G1 X126.601 Y124.345 E5.29259
G1 X128.832 Y121.655 E5.45632
G1 X130.634 Y119.022 E5.60577
G1 X132.331 Y115.968 E5.7695
G1 X133.665 Y112.332 E5.95093
G1 X134.063 Y108.832 E6.11597
G1 X134.063 Y91.168 E6.94349
G1 X133.582 Y87.326 E7.12492
G1 X132.331 Y84.032 E7.28996
G1 X130.634 Y80.978 E7.45369
G1 X128.832 Y78.345 E7.60315
G1 X126.601 Y75.655 E7.76688
G1 X124.345 Y73.399 E7.91633
G1 X122.655 Y71.946 E8.02075
G1 X120.879 Y70.6 E8.12516
G1 X117.934 Y68.717 E8.2889
G1 X115.968 Y67.669 E8.39331
G1 X112.332 Y66.335 E8.57473
G1 X108.832 Y65.937 E8.73978
G1 X91.168 Y65.937 E9.5673
G1 X87.326 Y66.418 E9.74872
G1 X84.032 Y67.669 E9.91377
G1 X80.978 Y69.366 E10.0775
G1 X79.121 Y70.6 E10.18192
G1 X76.605 Y72.561 E10.33137
G1 X74.102 Y74.913 E10.49229
G1 X74.359 Y75.187 F7800
G1 F1800
G1 X74.324 Y75.22 E10.49456
G1 X72.243 Y77.576 E10.64184
G1 X70.91 Y79.333 E10.74516
G1 X69.689 Y81.17 E10.84849
G1 X68.003 Y84.205 E11.01114
G1 X66.711 Y87.711 E11.18621
G1 X66.312 Y91.168 E11.34924
G1 X66.312 Y108.832 E12.17677
G1 X66.772 Y112.54 E12.35184
G1 X68.003 Y115.795 E12.51488
G1 X69.689 Y118.83 E12.67752
G1 X71.464 Y121.425 E12.8248
G1 X73.681 Y124.096 E12.98744
G1 X75.904 Y126.319 E13.13472
G1 X78.575 Y128.536 E13.29737
G1 X81.17 Y130.311 E13.44464
G1 X84.205 Y131.997 E13.60729
G1 X87.711 Y133.289 E13.78236
G1 X91.168 Y133.688 E13.9454
G1 X108.832 Y133.688 E14.77292
G1 X112.54 Y133.228 E14.94799
G1 X115.795 Y131.997 E15.11103
G1 X118.83 Y130.311 E15.27367
G1 X121.425 Y128.536 E15.42095
G1 X124.096 Y126.319 E15.5836
G1 X126.319 Y124.096 E15.73087
G1 X128.536 Y121.425 E15.89352
G1 X130.311 Y118.83 E16.0408
G1 X131.997 Y115.795 E16.20344
G1 X133.289 Y112.289 E16.37851
G1 X133.688 Y108.832 E16.54155
G1 X133.688 Y91.168 E17.36907
G1 X133.228 Y87.46 E17.54414
G1 X131.997 Y84.205 E17.70718
G1 X130.311 Y81.17 E17.86982
G1 X128.536 Y78.575 E18.0171
G1 X126.319 Y75.904 E18.17975
G1 X124.096 Y73.681 E18.32702
G1 X122.424 Y72.243 E18.43035
G1 X120.667 Y70.91 E18.53368
G1 X117.742 Y69.04 E18.69633
G1 X115.795 Y68.003 E18.79965
G1 X112.289 Y66.711 E18.97473
G1 X108.832 Y66.312 E19.13776
G1 X91.168 Y66.312 E19.96529
G1 X87.46 Y66.772 E20.14036
G1 X84.205 Y68.003 E20.30339
G1 X81.17 Y69.689 E20.46604
G1 X79.333 Y70.91 E20.56937
G1 X76.853 Y72.842 E20.71664
G1 X74.403 Y75.146 E20.87421
G92 E0
G1 E-2 F2400
; printing object Test_Body_split_C.stl id:0 copy 0
M486 S0
G1 X81.802 Y91.242 F7800
G1 E0 F2400
;TYPE:External perimeter
;WIDTH:0.604
G1 F1800
G1 X82.345 Y90.189 E0.07972
G1 X82.985 Y89.117 E0.16374
G1 X83.69 Y88.087 E0.24776
G1 X84.457 Y87.102 E0.33178
G1 X85.283 Y86.166 E0.41581
G1 X86.166 Y85.283 E0.49983
G1 X87.102 Y84.457 E0.58385
G1 X88.087 Y83.69 E0.66787
G1 X89.117 Y82.985 E0.7519
G1 X90.189 Y82.345 E0.83592
G1 X91.242 Y81.802 E0.91563
G1 X108.758 Y81.802 E2.0946
G1 X109.811 Y82.345 E2.17431
G1 X110.883 Y82.985 E2.25834
G1 X111.913 Y83.69 E2.34236
G1 X112.898 Y84.457 E2.42638
G1 X113.834 Y85.283 E2.5104
G1 X114.717 Y86.166 E2.59442
G1 X115.543 Y87.102 E2.67845
G1 X116.31 Y88.087 E2.76247
G1 X117.015 Y89.117 E2.84649
G1 X117.655 Y90.189 E2.93051
G1 X118.198 Y91.242 E3.01023
G1 X118.198 Y108.758 E4.18919
G1 X117.655 Y109.811 E4.26891
G1 X117.015 Y110.883 E4.35293
G1 X116.31 Y111.913 E4.43695
G1 X115.543 Y112.898 E4.52098
G1 X114.717 Y113.834 E4.605
G1 X113.834 Y114.717 E4.68902
G1 X112.898 Y115.543 E4.77304
G1 X111.913 Y116.31 E4.85707
G1 X110.883 Y117.015 E4.94109
G1 X109.811 Y117.655 E5.02511
G1 X108.758 Y118.198 E5.10483
G1 X91.242 Y118.198 E6.28379
G1 X90.189 Y117.655 E6.36351
G1 X89.117 Y117.015 E6.44753
G1 X88.087 Y116.31 E6.53155
G1 X87.102 Y115.543 E6.61557
G1 X86.166 Y114.717 E6.69959
G1 X85.283 Y113.834 E6.78362
G1 X84.457 Y112.898 E6.86764
G1 X83.69 Y111.913 E6.95166
G1 X82.985 Y110.883 E7.03568
G1 X82.345 Y109.811 E7.11971
G1 X81.802 Y108.758 E7.19942
G1 X81.802 Y91.302 E8.37435
;WIPE_START
G1 X82.194 Y91.16 F7800
;WIPE_END
G1 X82.397 Y91.265
;TYPE:Internal perimeter
G1 F1800
G1 X82.817 Y90.451 E8.43596
G1 X83.44 Y89.408 E8.51774
G1 X84.126 Y88.405 E8.59952
G1 X84.872 Y87.447 E8.68129
G1 X85.677 Y86.536 E8.76307
G1 X86.536 Y85.677 E8.84484
G1 X87.447 Y84.872 E8.92662
G1 X88.405 Y84.126 E9.0084
G1 X89.408 Y83.44 E9.09018
G1 X90.451 Y82.817 E9.17195
G1 X91.373 Y82.342 E9.24173
G1 X108.627 Y82.342 E10.40306
G1 X109.549 Y82.817 E10.47283
G1 X110.592 Y83.44 E10.55461
G1 X111.595 Y84.126 E10.63639
G1 X112.553 Y84.872 E10.71816
G1 X113.464 Y85.677 E10.79994
G1 X114.323 Y86.536 E10.88172
G1 X115.128 Y87.447 E10.96349
G1 X115.874 Y88.405 E11.04527
G1 X116.56 Y89.408 E11.12705
G1 X117.183 Y90.451 E11.20882
G1 X117.658 Y91.373 E11.2786
G1 X117.658 Y108.627 E12.43993
G1 X117.183 Y109.549 E12.5097
G1 X116.56 Y110.592 E12.59148
G1 X115.874 Y111.595 E12.67326
G1 X115.128 Y112.553 E12.75503
G1 X114.323 Y113.464 E12.83681
G1 X113.464 Y114.323 E12.91859
G1 X112.553 Y115.128 E13.00036
G1 X111.595 Y115.874 E13.08214
G1 X110.592 Y116.56 E13.16392
G1 X109.549 Y117.183 E13.24569
G1 X108.627 Y117.658 E13.31547
G1 X91.373 Y117.658 E14.4768
G1 X90.451 Y117.183 E14.54657
G1 X89.408 Y116.56 E14.62835
G1 X88.405 Y115.874 E14.71013
G1 X87.447 Y115.128 E14.7919
G1 X86.536 Y114.323 E14.87368
G1 X85.677 Y113.464 E14.95546
G1 X84.872 Y112.553 E15.03724
G1 X84.126 Y111.595 E15.11901
G1 X83.44 Y110.592 E15.20079
G1 X82.817 Y109.549 E15.28256
G1 X82.342 Y108.627 E15.35234
G1 X82.342 Y91.373 E16.51367
G1 X82.37 Y91.318 E16.51779
G92 E0
G1 E-2 F2400
G1 X85.346 Y92.869 F7800
G1 E0 F2400
;TYPE:External perimeter
G1 F1800
G1 X85.275 Y93.004 E0.01026
G1 X84.799 Y94.111 E0.09135
G1 X84.405 Y95.25 E0.17244
G1 X84.097 Y96.414 E0.25352
G1 X83.876 Y97.599 E0.33461
G1 X83.742 Y98.796 E0.4157
G1 X83.698 Y100 E0.49678
G1 X83.742 Y101.204 E0.57787
G1 X83.875 Y102.398 E0.65871
G1 X83.942 Y102.808 E0.68669
G1 X84.097 Y103.587 E0.74019
G1 X84.405 Y104.75 E0.82114
G1 X84.799 Y105.889 E0.90223
G1 X85.275 Y106.996 E0.98332
G1 X85.832 Y108.064 E1.0644
G1 X86.466 Y109.088 E1.14549
G1 X87.174 Y110.063 E1.22658
G1 X87.953 Y110.983 E1.30767
G1 X88.797 Y111.842 E1.38875
G1 X89.702 Y112.638 E1.46984
G1 X90.663 Y113.364 E1.55093
G1 X91.676 Y114.017 E1.63201
G1 X92.733 Y114.593 E1.7131
G1 X93.831 Y115.09 E1.79419
G1 X94.962 Y115.504 E1.87527
G1 X96.121 Y115.834 E1.95636
G1 X97.301 Y116.077 E2.03742
G1 X98.413 Y116.225 E2.11293
G1 X99.589 Y116.297 E2.19225
G1 X100.288 Y116.299 E2.23927
G1 X101.042 Y116.269 E2.29009
G1 X102.104 Y116.166 E2.36186
G1 X103.291 Y115.967 E2.4429
G1 X104.461 Y115.68 E2.52399
G1 X105.607 Y115.308 E2.60508
G1 X106.722 Y114.852 E2.68616
G1 X107.801 Y114.315 E2.76725
G1 X108.837 Y113.699 E2.84834
G1 X109.824 Y113.009 E2.92942
G1 X110.758 Y112.248 E3.01051
G1 X111.633 Y111.42 E3.0916
G1 X112.445 Y110.53 E3.17269
G1 X113.189 Y109.582 E3.25377
G1 X113.86 Y108.582 E3.33486
G1 X114.456 Y107.535 E3.41595
G1 X114.973 Y106.447 E3.49703
G1 X115.409 Y105.323 E3.57812
G1 X115.76 Y104.171 E3.65921
G1 X116.025 Y102.996 E3.74029
G1 X116.202 Y101.804 E3.82138
G1 X116.291 Y100.602 E3.90247
G1 X116.291 Y99.398 E3.98356
G1 X116.202 Y98.196 E4.06464
G1 X116.025 Y97.004 E4.14573
G1 X115.76 Y95.829 E4.22682
G1 X115.409 Y94.677 E4.3079
G1 X114.973 Y93.553 E4.38899
G1 X114.456 Y92.465 E4.47008
G1 X113.86 Y91.418 E4.55117
G1 X113.189 Y90.418 E4.63225
G1 X112.445 Y89.47 E4.71334
G1 X111.633 Y88.58 E4.79443
G1 X110.758 Y87.752 E4.87551
G1 X109.824 Y86.991 E4.9566
G1 X108.837 Y86.301 E5.03769
G1 X107.801 Y85.685 E5.11877
G1 X106.722 Y85.148 E5.19986
G1 X105.607 Y84.692 E5.28095
G1 X104.461 Y84.32 E5.36204
G1 X103.291 Y84.033 E5.44312
G1 X102.106 Y83.835 E5.524
G1 X101.586 Y83.775 E5.55923
G1 X100.756 Y83.716 E5.61522
G1 X99.82 Y83.699 E5.67821
G1 X99.062 Y83.725 E5.7293
G1 X98.492 Y83.768 E5.76772
G1 X97.193 Y83.941 E5.85596
G1 X96.121 Y84.166 E5.9297
G1 X94.962 Y84.496 E6.01076
G1 X93.831 Y84.91 E6.09184
G1 X92.733 Y85.407 E6.17293
G1 X91.676 Y85.983 E6.25402
G1 X90.663 Y86.636 E6.33511
G1 X89.702 Y87.362 E6.41619
G1 X88.797 Y88.158 E6.49728
G1 X87.953 Y89.017 E6.57837
G1 X87.174 Y89.937 E6.65945
G1 X86.466 Y90.912 E6.74054
G1 X85.832 Y91.936 E6.82163
G1 X85.373 Y92.816 E6.88841
;WIPE_START
G1 X84.946 Y92.886 F7800
;WIPE_END
G1 X84.771 Y92.811
;TYPE:Internal perimeter
G1 F1800
G1 X84.295 Y93.916 E6.96938
G1 X83.889 Y95.092 E7.05315
G1 X83.57 Y96.296 E7.13692
G1 X83.342 Y97.519 E7.22069
G1 X83.204 Y98.756 E7.30447
G1 X83.158 Y100 E7.38824
G1 X83.204 Y101.244 E7.47201
G1 X83.34 Y102.471 E7.5551
G1 X83.411 Y102.904 E7.58465
G1 X83.572 Y103.71 E7.63993
G1 X83.889 Y104.908 E7.72334
G1 X84.295 Y106.084 E7.80711
G1 X84.787 Y107.227 E7.89089
G1 X85.363 Y108.331 E7.97466
G1 X86.018 Y109.389 E8.05843
G1 X86.749 Y110.396 E8.14221
G1 X87.553 Y111.347 E8.22598
G1 X88.425 Y112.235 E8.30975
G1 X89.361 Y113.056 E8.39353
G1 X90.354 Y113.806 E8.4773
G1 X91.4 Y114.481 E8.56107
G1 X92.493 Y115.077 E8.64484
G1 X93.627 Y115.59 E8.72862
G1 X94.795 Y116.018 E8.81239
G1 X95.993 Y116.359 E8.89616
G1 X97.211 Y116.61 E8.97986
G1 X98.361 Y116.762 E9.05795
G1 X99.572 Y116.836 E9.13959
G1 X100.298 Y116.839 E9.18847
G1 X101.079 Y116.807 E9.24111
G1 X102.174 Y116.701 E9.31516
G1 X103.4 Y116.495 E9.39882
G1 X104.609 Y116.199 E9.48259
G1 X105.793 Y115.815 E9.56636
G1 X106.945 Y115.344 E9.65014
G1 X108.059 Y114.789 E9.73391
G1 X109.129 Y114.153 E9.81768
G1 X110.15 Y113.44 E9.90145
G1 X111.115 Y112.654 E9.98523
G1 X112.019 Y111.799 E10.069
G1 X112.857 Y110.879 E10.15277
G1 X113.626 Y109.9 E10.23655
G1 X114.32 Y108.866 E10.32032
G1 X114.935 Y107.785 E10.40409
G1 X115.469 Y106.66 E10.48787
G1 X115.919 Y105.5 E10.57164
G1 X116.282 Y104.309 E10.65541
G1 X116.555 Y103.095 E10.73918
G1 X116.739 Y101.864 E10.82296
G1 X116.831 Y100.622 E10.90673
G1 X116.831 Y99.378 E10.9905
G1 X116.739 Y98.136 E11.07427
G1 X116.555 Y96.905 E11.15805
G1 X116.282 Y95.691 E11.24182
G1 X115.919 Y94.5 E11.32559
G1 X115.469 Y93.34 E11.40937
G1 X114.935 Y92.215 E11.49314
G1 X114.32 Y91.134 E11.57691
G1 X113.626 Y90.1 E11.66069
G1 X112.857 Y89.121 E11.74446
G1 X112.019 Y88.201 E11.82823
G1 X111.115 Y87.346 E11.91201
G1 X110.15 Y86.56 E11.99578
G1 X109.129 Y85.847 E12.07955
G1 X108.059 Y85.211 E12.16332
G1 X106.945 Y84.656 E12.2471
G1 X105.793 Y84.185 E12.33087
G1 X104.609 Y83.801 E12.41464
G1 X103.4 Y83.505 E12.49842
G1 X102.181 Y83.3 E12.58159
G1 X101.636 Y83.238 E12.61855
G1 X100.78 Y83.177 E12.67628
G1 X99.816 Y83.159 E12.74119
G1 X99.032 Y83.186 E12.79396
G1 X98.437 Y83.231 E12.83416
G1 X97.102 Y83.409 E12.9248
G1 X95.991 Y83.642 E13.00117
G1 X94.795 Y83.982 E13.08485
G1 X93.627 Y84.41 E13.16862
G1 X92.493 Y84.923 E13.25239
G1 X91.4 Y85.519 E13.33617
G1 X90.354 Y86.194 E13.41994
G1 X89.361 Y86.944 E13.50371
G1 X88.425 Y87.765 E13.58749
G1 X87.553 Y88.653 E13.67126
G1 X86.749 Y89.604 E13.75503
G1 X86.018 Y90.611 E13.8388
G1 X85.363 Y91.669 E13.92258
G1 X84.796 Y92.757 E14.00512
G92 E0
G1 E-2 F2400
G1 X111.566 Y84.352 F7800
G1 E0 F2400
;TYPE:Solid infill
;WIDTH:0.575973
G1 F1200
G1 X114.108 Y86.893 E0.23067
G1 X115.56 Y88.643 E0.37656
G1 X116.225 Y89.616 E0.45223
G1 X116.425 Y89.974 E0.47858
G1 X109.991 Y83.54 E1.06257
G1 X109.357 Y83.161 E1.10996
G1 X108.532 Y82.736 E1.16958
G1 X108.424 Y82.736 E1.1765
G1 X117.264 Y91.576 E1.97893
G1 X117.264 Y92.339 E2.02791
G1 X107.661 Y82.736 E2.8996
G1 X106.898 Y82.736 E2.94858
G1 X117.264 Y93.102 E3.88954
G1 X117.264 Y93.866 E3.93852
G1 X115.047 Y91.649 E4.13975
G1 X115.285 Y92.033 E4.16877
G1 X115.752 Y93.116 E4.24445
G1 X117.264 Y94.629 E4.38175
G1 X117.264 Y95.392 E4.43073
G1 X116.312 Y94.44 E4.51716
G1 X116.646 Y95.537 E4.59079
G1 X117.264 Y96.155 E4.64688
G1 X117.264 Y96.918 E4.69586
G1 X116.831 Y96.484 E4.73524
G1 X117.006 Y97.423 E4.79652
G1 X117.264 Y97.681 E4.81997
G1 X117.264 Y98.444 E4.86895
G1 X117.148 Y98.328 E4.87953
G1 X117.209 Y99.152 E4.93257
G1 X117.264 Y99.207 E4.93761
G1 X117.264 Y99.971 E4.98659
G1 X117.205 Y99.911 E4.99198
G1 X117.178 Y100.647 E5.03924
G1 X117.264 Y100.734 E5.0471
G1 X117.264 Y101.497 E5.09608
G1 X117.151 Y101.383 E5.1064
G1 X117.132 Y101.9 E5.1396
G1 X117.102 Y102.098 E5.15243
G1 X117.264 Y102.26 E5.16716
G1 X117.264 Y103.023 E5.21614
G1 X117.003 Y102.762 E5.23985
G1 X116.942 Y103.174 E5.26662
G1 X116.881 Y103.403 E5.2818
G1 X117.264 Y103.786 E5.31659
G1 X117.264 Y104.549 E5.36556
G1 X116.722 Y104.007 E5.41484
G1 X116.562 Y104.61 E5.4549
G1 X117.264 Y105.313 E5.51868
G1 X117.264 Y106.076 E5.56766
G1 X116.402 Y105.213 E5.64592
G1 X116.292 Y105.629 E5.67349
G1 X116.221 Y105.795 E5.68512
G1 X117.264 Y106.839 E5.77986
G1 X117.264 Y107.602 E5.82884
G1 X115.991 Y106.328 E5.94443
G1 X115.761 Y106.862 E5.98171
G1 X117.264 Y108.365 E6.11815
G1 X117.264 Y108.532 E6.12885
G1 X117.061 Y108.925 E6.15726
G1 X115.532 Y107.395 E6.29612
G1 X115.302 Y107.929 E6.3334
G1 X116.798 Y109.425 E6.4692
G1 X116.513 Y109.903 E6.50492
G1 X115.028 Y108.418 E6.63971
G1 X114.751 Y108.904 E6.67562
G1 X116.227 Y110.38 E6.8096
G1 X115.905 Y110.821 E6.84465
G1 X114.446 Y109.362 E6.97708
G1 X114.125 Y109.804 E7.01215
G1 X115.583 Y111.262 E7.14449
G1 X115.261 Y111.703 E7.17954
G1 X113.804 Y110.246 E7.31179
G1 X113.483 Y110.688 E7.34686
G1 X114.939 Y112.144 E7.47902
G1 X114.824 Y112.301 E7.4915
G1 X114.586 Y112.555 E7.51381
G1 X113.161 Y111.13 E7.64312
G1 X112.797 Y111.529 E7.67779
G1 X114.216 Y112.948 E7.80657
G1 X113.846 Y113.341 E7.84122
G1 X112.433 Y111.929 E7.96946
G1 X112.295 Y112.08 E7.98263
G1 X112.043 Y112.301 E8.00415
G1 X113.477 Y113.735 E8.13425
G1 X113.194 Y114.036 E8.16075
G1 X113.096 Y114.117 E8.16894
G1 X111.637 Y112.658 E8.30134
G1 X111.231 Y113.015 E8.33605
G1 X112.679 Y114.463 E8.46747
G1 X112.262 Y114.809 E8.50226
G1 X110.824 Y113.372 E8.63271
G1 X110.418 Y113.729 E8.66741
G1 X111.845 Y115.155 E8.79688
G1 X111.427 Y115.501 E8.83167
G1 X109.958 Y114.032 E8.965
G1 X109.495 Y114.332 E9.00043
G1 X110.98 Y115.817 E9.13529
G1 X110.527 Y116.127 E9.17053
G1 X109.031 Y114.631 E9.30636
G1 X108.567 Y114.93 E9.34179
G1 X110.049 Y116.413 E9.47634
G1 X109.56 Y116.686 E9.51233
G1 X108.088 Y115.215 E9.64591
G1 X107.579 Y115.468 E9.68243
G1 X109.07 Y116.96 E9.81782
G1 X108.581 Y117.233 E9.85381
G1 X107.066 Y115.719 E9.99128
