; generated by SuperSlicer 2.4 on 2024-05-15 at 16:12:34 UTC

; 

; external perimeters extrusion width = 0.42mm
; perimeters extrusion width = 0.46mm
; infill extrusion width = 0.44mm
; solid infill extrusion width = 0.46mm
; top infill extrusion width = 0.44mm
; support material extrusion width = 0.40mm
; first layer extrusion width = 0.60mm

; external perimeters extrusion width = 0.42mm
; perimeters extrusion width = 0.46mm
; infill extrusion width = 0.44mm
; solid infill extrusion width = 0.46mm
; top infill extrusion width = 0.44mm
; support material extrusion width = 0.40mm
; first layer extrusion width = 0.60mm

; external perimeters extrusion width = 0.42mm
; perimeters extrusion width = 0.46mm
; infill extrusion width = 0.44mm
; solid infill extrusion width = 0.46mm
; top infill extrusion width = 0.44mm
; support material extrusion width = 0.40mm
; first layer extrusion width = 0.60mm

; external perimeters extrusion width = 0.42mm
; perimeters extrusion width = 0.46mm
; infill extrusion width = 0.44mm
; solid infill extrusion width = 0.46mm
; top infill extrusion width = 0.44mm
; support material extrusion width = 0.40mm
; first layer extrusion width = 0.60mm

; external perimeters extrusion width = 0.42mm
; perimeters extrusion width = 0.46mm
; infill extrusion width = 0.44mm
; solid infill extrusion width = 0.46mm
; top infill extrusion width = 0.44mm
; support material extrusion width = 0.40mm
; first layer extrusion width = 0.60mm

; external perimeters extrusion width = 0.42mm
; perimeters extrusion width = 0.46mm
; infill extrusion width = 0.44mm
; solid infill extrusion width = 0.46mm
; top infill extrusion width = 0.44mm
; support material extrusion width = 0.40mm
; first layer extrusion width = 0.60mm

; external perimeters extrusion width = 0.42mm
; perimeters extrusion width = 0.46mm
; infill extrusion width = 0.44mm
; solid infill extrusion width = 0.46mm
; top infill extrusion width = 0.44mm
; support material extrusion width = 0.40mm
; first layer extrusion width = 0.60mm

; external perimeters extrusion width = 0.42mm
; perimeters extrusion width = 0.46mm
; infill extrusion width = 0.44mm
; solid infill extrusion width = 0.46mm
; top infill extrusion width = 0.44mm
; support material extrusion width = 0.40mm
; first layer extrusion width = 0.60mm

; external perimeters extrusion width = 0.42mm
; perimeters extrusion width = 0.46mm
; infill extrusion width = 0.44mm
; solid infill extrusion width = 0.46mm
; top infill extrusion width = 0.44mm
; support material extrusion width = 0.40mm
; first layer extrusion width = 0.60mm

; external perimeters extrusion width = 0.42mm
; perimeters extrusion width = 0.46mm
; infill extrusion width = 0.44mm
; solid infill extrusion width = 0.46mm
; top infill extrusion width = 0.44mm
; support material extrusion width = 0.40mm
; first layer extrusion width = 0.60mm

; object:{"name":"Test_Radiator_Disc","id":"Test_Radiator_Disc.stl id:0 copy 0","object_center":[67.450085,102.876276,0.000000],"boundingbox_center":[67.450085,102.876276,1.625000],"boundingbox_size":[39.999638,39.993752,3.250000]}
; object:{"name":"Test_Radiator_Disc","id":"Test_Radiator_Disc.stl id:1 copy 0","object_center":[109.844910,103.122087,0.000000],"boundingbox_center":[109.844910,103.122087,1.625000],"boundingbox_size":[39.999638,39.993752,3.250000]}
; object:{"name":"Test_Radiator_Disc","id":"Test_Radiator_Disc.stl id:2 copy 0","object_center":[89.547233,140.388928,0.000000],"boundingbox_center":[89.547233,140.388928,1.625000],"boundingbox_size":[39.999638,39.993752,3.250000]}
; object:{"name":"Test_Radiator_Disc","id":"Test_Radiator_Disc.stl id:3 copy 0","object_center":[131.825933,139.127002,0.000000],"boundingbox_center":[131.825933,139.127002,1.625000],"boundingbox_size":[39.999638,39.993752,3.250000]}
; object:{"name":"Test_Radiator_Disc","id":"Test_Radiator_Disc.stl id:4 copy 0","object_center":[152.519968,102.767393,0.000000],"boundingbox_center":[152.519968,102.767393,1.625000],"boundingbox_size":[39.999638,39.993752,3.250000]}
; object:{"name":"Test_Radiator_Disc","id":"Test_Radiator_Disc.stl id:5 copy 0","object_center":[88.229913,65.630822,0.000000],"boundingbox_center":[88.229913,65.630822,1.625000],"boundingbox_size":[39.999638,39.993752,3.250000]}
; object:{"name":"Test_Radiator_Disc","id":"Test_Radiator_Disc.stl id:6 copy 0","object_center":[130.536913,66.070241,0.000000],"boundingbox_center":[130.536913,66.070241,1.625000],"boundingbox_size":[39.999638,39.993752,3.250000]}
; object:{"name":"Test_Radiator_Disc","id":"Test_Radiator_Disc.stl id:7 copy 0","object_center":[46.751382,139.407313,0.000000],"boundingbox_center":[46.751382,139.407313,1.625000],"boundingbox_size":[39.999638,39.993752,3.250000]}
; object:{"name":"Test_Decal_Ring_Tripple","id":"Test_Decal_Ring_Tripple.stl id:8 copy 0","object_center":[72.522707,48.245350,0.000000],"boundingbox_center":[72.522707,48.245350,8.500000],"boundingbox_size":[36.832499,36.832499,17.000000]}
; object:{"name":"Test_Decal_Ring_Tripple","id":"Test_Decal_Ring_Tripple.stl id:9 copy 0","object_center":[43.786459,92.886041,0.000000],"boundingbox_center":[43.786459,92.886041,8.500000],"boundingbox_size":[32.122332,40.532117,17.000000]}
; Total objects to print: 10
M486 T10
; plater:{"center":[99.635675,95.107452,0.000000],"boundingbox_center":[99.635675,95.107452,8.500000],"boundingbox_size":[145.768223,130.556704,17.000000]}

M140 S70 ; set bed temperature
M104 S230 ; set temperature
;TYPE:Custom
G28 ; home all axes
G1 Z5 F5000 ; lift nozzle
M107
G21 ; set units to millimeters
G90 ; use absolute coordinates
M82 ; use absolute distances for extrusion
G92 E0
; Filament gcode
;_TOOLCHANGE 0
M109 S230 ; set temperature and wait for it to be reached
M190 S70 ; set bed temperature and wait for it to be reached
M107
;LAYER_CHANGE
;Z:0.3
;HEIGHT:0.3
G1 Z0.3 F7800
G1 E-2 F2400
G1 X45.464 Y31.657 F7800
G1 E0 F2400
;TYPE:Skirt
;WIDTH:0.44
G1 F1800
G1 X45.034 Y32.275 E0.03526
G1 X18.497 Y75.313 E2.40405
G1 X17.264 Y77.47 E2.52044
G1 X16.399 Y79.223 E2.61201
G1 X15.295 Y81.888 E2.74715
G1 X14.222 Y85.285 E2.91405
G1 X13.64 Y87.865 E3.03796
G1 X13.224 Y90.723 E3.17327
G1 X13.056 Y92.846 E3.27304
G1 X11.215 Y138.015 E5.39096
G1 X11.197 Y139.923 E5.48034
G1 X11.311 Y142.303 E5.59197
G1 X11.755 Y145.699 E5.75242
G1 X12.255 Y148.029 E5.86406
G1 X12.827 Y150.073 E5.96349
G1 X13.772 Y152.7 E6.09429
G1 X14.339 Y154.037 E6.16234
G1 X15.204 Y155.811 E6.2548
G1 X16.374 Y157.887 E6.36644
G1 X17.528 Y159.668 E6.46587
G1 X19.116 Y161.781 E6.58971
G1 X20.955 Y163.883 E6.72052
G1 X22.463 Y165.375 E6.81995
G1 X24.257 Y166.944 E6.93158
G1 X25.398 Y167.842 E6.99962
G1 X27.135 Y169.062 E7.09905
G1 X29.165 Y170.309 E7.21068
G1 X31.508 Y171.534 E7.33453
G1 X33.453 Y172.382 E7.43396
G1 X35.551 Y173.153 E7.53864
G1 X37.583 Y173.764 E7.63806
G1 X38.994 Y174.106 E7.7061
G1 X41.74 Y174.612 E7.83691
G1 X43.85 Y174.844 E7.93634
G1 X46.394 Y174.964 E8.05568
G1 X89.19 Y175.945 E10.06117
G1 X90.682 Y175.931 E10.13104
G1 X132.96 Y174.669 E12.11265
G1 X134.727 Y174.564 E12.19558
G1 X137.5 Y174.231 E12.32639
G1 X140.597 Y173.584 E12.47465
G1 X143.768 Y172.621 E12.62987
G1 X146.357 Y171.578 E12.76067
G1 X148.498 Y170.532 E12.8723
G1 X150.787 Y169.209 E12.99615
G1 X152.546 Y168.022 E13.09558
G1 X154.32 Y166.663 E13.20025
G1 X156.114 Y165.095 E13.31189
G1 X157.799 Y163.41 E13.42352
G1 X159.627 Y161.3 E13.55433
G1 X160.897 Y159.6 E13.65376
G1 X161.712 Y158.397 E13.7218
G1 X162.919 Y156.383 E13.8318
G1 X183.613 Y120.023 E15.7918
G1 X184.535 Y118.239 E15.8859
G1 X185.404 Y116.303 E15.98533
G1 X185.926 Y114.947 E16.05338
G1 X186.597 Y112.934 E16.1528
G1 X187.083 Y111.137 E16.24002
G1 X187.517 Y109.059 E16.33945
G1 X187.86 Y106.701 E16.45109
G1 X188.075 Y103.283 E16.61154
G1 X188.03 Y100.901 E16.72317
G1 X187.859 Y98.785 E16.8226
G1 X187.281 Y95.259 E16.99003
G1 X186.841 Y93.45 E17.07725
G1 X186.22 Y91.42 E17.17668
G1 X185.732 Y90.052 E17.24472
G1 X184.912 Y88.095 E17.34415
G1 X184.289 Y86.783 E17.41219
G1 X183.021 Y84.476 E17.53552
G1 X161.038 Y47.779 E19.53963
G1 X160.028 Y46.201 E19.62738
G1 X159.196 Y45.011 E19.69542
G1 X157.886 Y43.341 E19.79485
G1 X155.572 Y40.816 E19.9553
G1 X154.024 Y39.364 E20.05473
G1 X152.912 Y38.431 E20.12277
G1 X151.011 Y36.994 E20.2344
G1 X149.9 Y36.243 E20.29719
G1 X147.633 Y34.884 E20.42104
G1 X145.032 Y33.593 E20.5571
G1 X142.438 Y32.559 E20.68791
G1 X140.562 Y31.947 E20.78037
G1 X85.735 Y16.402 E23.45019
G1 X83.126 Y15.797 E23.57568
G1 X81.661 Y15.54 E23.64536
G1 X78.785 Y15.218 E23.78094
G1 X76.616 Y15.12 E23.88265
G1 X73.105 Y15.243 E24.04727
G1 X70.706 Y15.519 E24.1604
G1 X68.702 Y15.871 E24.2557
G1 X65.303 Y16.746 E24.42014
G1 X63.962 Y17.187 E24.48627
G1 X61.8 Y18.022 E24.59486
G1 X58.835 Y19.436 E24.74878
G1 X55.593 Y21.381 E24.92587
G1 X54.039 Y22.492 E25.01539
G1 X52.208 Y23.965 E25.12547
G1 X49.775 Y26.251 E25.28187
G1 X48.194 Y27.986 E25.39184
G1 X46.988 Y29.469 E25.48141
G1 X45.498 Y31.608 E25.60351
G1 X45.806 Y31.822 F7800
G1 F1800
G1 X45.354 Y32.472 E25.6406
G1 X18.817 Y75.511 E28.00939
G1 X17.598 Y77.643 E28.12445
G1 X16.738 Y79.383 E28.21541
G1 X15.65 Y82.011 E28.34865
G1 X14.584 Y85.386 E28.51449
G1 X14.009 Y87.938 E28.63701
G1 X13.598 Y90.755 E28.77042
G1 X13.431 Y92.861 E28.86937
G1 X11.59 Y138.031 E30.9873
G1 X11.572 Y139.925 E31.07603
G1 X11.686 Y142.28 E31.18649
G1 X12.123 Y145.626 E31.34458
G1 X12.617 Y147.931 E31.45504
G1 X13.184 Y149.956 E31.55358
G1 X14.123 Y152.566 E31.6835
G1 X14.683 Y153.886 E31.75067
G1 X15.534 Y155.631 E31.84165
G1 X16.691 Y157.686 E31.95211
G1 X17.834 Y159.451 E32.05065
G1 X19.404 Y161.539 E32.17303
G1 X21.229 Y163.627 E32.30295
G1 X22.725 Y165.106 E32.40149
G1 X24.5 Y166.657 E32.51195
G1 X25.627 Y167.544 E32.57911
G1 X27.348 Y168.753 E32.67765
G1 X29.357 Y169.987 E32.7881
G1 X31.672 Y171.196 E32.91048
G1 X33.6 Y172.037 E33.00902
G1 X35.662 Y172.794 E33.11193
G1 X37.676 Y173.4 E33.21046
G1 X39.069 Y173.738 E33.27763
G1 X41.797 Y174.24 E33.40755
G1 X43.888 Y174.47 E33.50609
G1 X46.403 Y174.588 E33.62407
G1 X89.199 Y175.57 E35.62956
G1 X90.67 Y175.556 E35.6985
G1 X132.949 Y174.294 E37.68011
G1 X134.69 Y174.19 E37.7618
G1 X137.443 Y173.859 E37.89172
G1 X140.498 Y173.221 E38.03792
G1 X143.638 Y172.269 E38.19166
G1 X146.21 Y171.232 E38.32159
G1 X148.328 Y170.197 E38.43204
G1 X150.59 Y168.89 E38.55441
G1 X152.333 Y167.712 E38.65296
G1 X154.077 Y166.377 E38.75586
G1 X155.852 Y164.826 E38.86632
G1 X157.52 Y163.159 E38.97677
G1 X159.336 Y161.063 E39.10669
G1 X160.594 Y159.378 E39.20524
G1 X161.399 Y158.191 E39.27239
G1 X162.592 Y156.197 E39.38126
G1 X183.286 Y119.838 E41.34125
G1 X184.194 Y118.082 E41.43385
G1 X185.056 Y116.163 E41.53239
G1 X185.571 Y114.825 E41.59955
G1 X186.236 Y112.83 E41.69809
G1 X186.718 Y111.045 E41.78472
G1 X187.148 Y108.986 E41.88327
G1 X187.487 Y106.653 E41.99372
G1 X187.699 Y103.285 E42.15182
G1 X187.655 Y100.927 E42.26227
G1 X187.486 Y98.831 E42.36082
G1 X186.915 Y95.341 E42.52648
G1 X186.477 Y93.545 E42.61311
G1 X185.862 Y91.533 E42.71165
G1 X185.38 Y90.183 E42.77881
G1 X184.567 Y88.243 E42.87736
G1 X183.952 Y86.949 E42.94451
G1 X182.699 Y84.669 E43.06638
G1 X160.715 Y47.972 E45.07049
G1 X159.713 Y46.405 E45.15763
G1 X158.891 Y45.231 E45.22479
G1 X157.592 Y43.576 E45.32333
G1 X155.313 Y41.087 E45.48143
G1 X153.778 Y39.649 E45.57998
G1 X152.681 Y38.727 E45.64713
G1 X151.624 Y37.903 E45.70992
G1 X149.69 Y36.554 E45.82037
G1 X147.449 Y35.212 E45.94275
G1 X144.882 Y33.937 E46.07704
G1 X142.306 Y32.911 E46.20696
G1 X140.459 Y32.308 E46.29795
G1 X85.641 Y16.766 E48.96739
G1 X83.048 Y16.164 E49.09208
G1 X81.601 Y15.91 E49.16093
G1 X78.765 Y15.593 E49.29461
G1 X76.614 Y15.496 E49.39546
G1 X73.143 Y15.617 E49.55822
G1 X70.768 Y15.889 E49.67021
G1 X68.781 Y16.238 E49.76469
G1 X65.42 Y17.103 E49.92727
G1 X64.08 Y17.544 E49.9934
G1 X61.94 Y18.37 E50.10085
G1 X59.006 Y19.77 E50.25317
G1 X55.801 Y21.695 E50.42832
G1 X54.26 Y22.796 E50.51705
G1 X52.447 Y24.255 E50.62606
G1 X50.05 Y26.508 E50.78017
G1 X48.483 Y28.225 E50.88908
G1 X47.288 Y29.695 E50.97786
G1 X45.841 Y31.773 E51.09649
G92 E0
G1 E-2 F2400
; printing object Test_Radiator_Disc.stl id:0 copy 0
M486 S0
G1 X66.648 Y83.2 F7800
G1 E0 F2400
;TYPE:External perimeter
;WIDTH:0.604
G1 F1800
G1 X66.648 Y86.899 E0.24902
G1 X65.73 Y86.964 E0.31096
G1 X64.532 Y87.139 E0.39244
G1 X63.932 Y87.263 E0.43366
G1 X62.765 Y87.572 E0.51495
G1 X62.183 Y87.763 E0.55618
G1 X61.055 Y88.204 E0.63765
G1 X59.962 Y88.731 E0.71932
G1 X58.912 Y89.339 E0.80099
G1 X57.914 Y90.023 E0.88247
G1 X57.431 Y90.396 E0.9235
G1 X56.963 Y90.786 E0.96454
G1 X56.079 Y91.614 E1.04601
G1 X55.261 Y92.506 E1.12749
G1 X54.873 Y92.98 E1.16872
G1 X54.161 Y93.959 E1.25019
G1 X53.525 Y94.989 E1.33167
G1 X53.233 Y95.528 E1.3729
G1 X52.719 Y96.623 E1.45437
G1 X52.288 Y97.758 E1.53604
G1 X51.944 Y98.919 E1.61752
G1 X51.804 Y99.515 E1.65875
G1 X51.596 Y100.704 E1.74003
G1 X51.525 Y101.31 E1.78106
G1 X51.477 Y101.918 E1.8221
G1 X51.45 Y103.128 E1.90357
G1 X51.515 Y104.34 E1.98524
G1 X51.672 Y105.54 E2.06672
G1 X51.785 Y106.142 E2.10795
G1 X52.077 Y107.314 E2.18923
G1 X52.258 Y107.899 E2.23046
G1 X52.681 Y109.033 E2.31193
G1 X53.189 Y110.132 E2.39341
G1 X53.477 Y110.673 E2.43464
G1 X54.107 Y111.707 E2.51611
G1 X54.813 Y112.69 E2.59759
G1 X55.196 Y113.164 E2.63863
G1 X55.597 Y113.624 E2.67966
G1 X56.444 Y114.489 E2.76114
G1 X57.353 Y115.288 E2.84261
G1 X57.836 Y115.665 E2.88384
G1 X58.828 Y116.354 E2.96512
G1 X59.35 Y116.674 E3.00635
G1 X60.417 Y117.247 E3.08783
G1 X61.523 Y117.737 E3.1693
G1 X62.096 Y117.953 E3.21053
G1 X63.249 Y118.314 E3.29181
G1 X63.843 Y118.463 E3.33304
G1 X65.032 Y118.692 E3.41452
G1 X66.235 Y118.829 E3.49599
G1 X66.846 Y118.864 E3.53722
G1 X68.054 Y118.864 E3.6185
G1 X68.665 Y118.829 E3.65973
G1 X69.868 Y118.692 E3.74121
G1 X71.06 Y118.463 E3.82288
G1 X72.228 Y118.145 E3.90435
G1 X72.806 Y117.952 E3.94539
G1 X73.377 Y117.737 E3.98642
G1 X74.484 Y117.247 E4.0679
G1 X75.55 Y116.674 E4.14937
G1 X76.072 Y116.354 E4.1906
G1 X77.067 Y115.663 E4.27208
G1 X78.008 Y114.898 E4.35375
G1 X78.889 Y114.063 E4.43542
G1 X79.702 Y113.166 E4.5169
G1 X80.087 Y112.69 E4.55812
G1 X80.793 Y111.707 E4.6396
G1 X81.424 Y110.67 E4.72127
G1 X81.975 Y109.589 E4.80294
G1 X82.442 Y108.469 E4.88461
G1 X82.823 Y107.317 E4.96628
G1 X83.115 Y106.142 E5.04775
G1 X83.228 Y105.54 E5.08898
G1 X83.385 Y104.34 E5.17046
G1 X83.45 Y103.128 E5.25213
G1 X83.424 Y101.915 E5.3338
G1 X83.305 Y100.707 E5.41546
G1 X83.095 Y99.512 E5.49713
G1 X82.796 Y98.336 E5.5788
G1 X82.408 Y97.186 E5.66047
G1 X81.934 Y96.069 E5.74214
G1 X81.377 Y94.991 E5.82381
G1 X80.739 Y93.959 E5.90548
G1 X80.027 Y92.98 E5.98696
G1 X79.64 Y92.506 E6.02818
G1 X78.821 Y91.614 E6.10966
G1 X77.935 Y90.785 E6.19133
G1 X76.989 Y90.025 E6.273
G1 X75.988 Y89.339 E6.35467
G1 X74.938 Y88.731 E6.43634
G1 X73.845 Y88.204 E6.51801
G1 X72.715 Y87.762 E6.59968
G1 X71.555 Y87.406 E6.68135
G1 X70.371 Y87.14 E6.76302
G1 X69.17 Y86.964 E6.84469
G1 X68.252 Y86.899 E6.90663
G1 X68.252 Y83.194 E7.156
G1 X68.6 Y83.209 E7.17941
G1 X69.916 Y83.33 E7.26842
G1 X71.222 Y83.54 E7.35743
G1 X71.863 Y83.676 E7.40152
G1 X73.144 Y84.016 E7.49069
G1 X73.767 Y84.216 E7.53478
G1 X75.007 Y84.683 E7.62396
G1 X75.608 Y84.944 E7.66805
G1 X76.795 Y85.533 E7.75723
G1 X77.369 Y85.855 E7.80148
G1 X77.931 Y86.195 E7.84574
G1 X79.026 Y86.936 E7.93475
G1 X80.07 Y87.749 E8.02376
G1 X80.566 Y88.177 E8.06784
G1 X81.524 Y89.092 E8.15703
G1 X81.976 Y89.569 E8.20128
G1 X82.412 Y90.061 E8.24554
G1 X83.24 Y91.096 E8.33472
G1 X83.623 Y91.628 E8.3788
G1 X84.341 Y92.738 E8.46781
G1 X84.983 Y93.894 E8.55682
G1 X85.272 Y94.482 E8.60091
G1 X85.795 Y95.699 E8.69009
G1 X86.024 Y96.313 E8.73418
G1 X86.423 Y97.577 E8.82336
G1 X86.589 Y98.213 E8.86761
G1 X86.734 Y98.855 E8.91187
G1 X86.96 Y100.16 E9.00105
G1 X87.04 Y100.81 E9.04514
G1 X87.134 Y102.129 E9.13414
G1 X87.139 Y103.452 E9.22315
G1 X87.109 Y104.109 E9.26741
G1 X87.057 Y104.764 E9.31167
G1 X86.886 Y106.076 E9.40068
G1 X86.627 Y107.373 E9.48969
G1 X86.466 Y108.01 E9.53394
G1 X86.284 Y108.642 E9.5782
G1 X85.854 Y109.895 E9.66738
